junnyyummy/RobotArmSimulink/dual_arm_inverse_kinematics_result.csv
Arm1_Actual_J1_rad,Arm1_Actual_J2_rad,Arm1_Actual_J3_rad,Arm1_Actual_J4_rad,Arm1_Solved_J1_rad,Arm1_Solved_J2_rad,Arm1_Solved_J3_rad,Arm1_Solved_J4_rad,Arm1_JointErr_J1_rad,Arm1_JointErr_J2_rad,Arm1_JointErr_J3_rad,Arm1_JointErr_J4_rad,Arm1_JointErr_J1_deg,Arm1_JointErr_J2_deg,Arm1_JointErr_J3_deg,Arm1_JointErr_J4_deg,Arm1_Target_X_m,Arm1_Target_Y_m,Arm1_Target_Z_m,Arm1_Calc_X_m,Arm1_Calc_Y_m,Arm1_Calc_Z_m,Arm1_PosErr_X_m,Arm1_PosErr_Y_m,Arm1_PosErr_Z_m,Arm1_Total_Pos_Error_m,Arm1_Converged,Arm2_Actual_J1_rad,Arm2_Actual_J2_rad,Arm2_Actual_J3_rad,Arm2_Actual_J4_rad,Arm2_Solved_J1_rad,Arm2_Solved_J2_rad,Arm2_Solved_J3_rad,Arm2_Solved_J4_rad,Arm2_JointErr_J1_rad,Arm2_JointErr_J2_rad,Arm2_JointErr_J3_rad,Arm2_JointErr_J4_rad,Arm2_JointErr_J1_deg,Arm2_JointErr_J2_deg,Arm2_JointErr_J3_deg,Arm2_JointErr_J4_deg,Arm2_Target_X_m,Arm2_Target_Y_m,Arm2_Target_Z_m,Arm2_Calc_X_m,Arm2_Calc_Y_m,Arm2_Calc_Z_m,Arm2_PosErr_X_m,Arm2_PosErr_Y_m,Arm2_PosErr_Z_m,Arm2_Total_Pos_Error_m,Arm2_Converged
-8.1555e-05,0,0,0,-8.15846487766667e-05,-4.6596505460457e-09,1.97577972770166e-05,0.000106410715760993,-2.9648776666717e-08,-4.6596505460457e-09,1.97577972770166e-05,0.000106410715760993,-1.69874977072884e-06,-2.66978310294248e-07,0.00113203839644812,0.00609688490807111,0.556,0.0281,0.10904,0.555999998627017,0.0280999975769817,0.109040005533663,-1.37298350466608e-09,-2.42301826866576e-09,5.53366344413497e-09,6.19496023775204e-09,1,0,0,0,0,-0.216296219489663,6.61948357605125e-08,0.462462714646076,0.321809754914638,-0.216296219489663,6.61948357605125e-08,0.462462714646076,0.321809754914638,-12.392860501393,3.79268471463902e-06,26.4971617313831,18.4383407627481,0.9058,0.106,0.109,0.90579997604991,0.106000033571602,0.109000032346163,-2.39500896892508e-08,3.35716021648835e-08,3.23461630397093e-08,5.24111966227811e-08,1
-0.024356,0,0,0,-0.0243651399781605,-2.656935793058e-07,6.16370955989941e-06,0.000114408852440929,-9.13997816051962e-06,-2.656935793058e-07,6.16370955989941e-06,0.000114408852440929,-0.00052368217343952,-1.52231207379468e-05,0.000353154543926674,0.00655514438380024,0.55584,0.0281,0.12242,0.555836528022362,0.028099861839338,0.122419887238553,-3.4719776383918e-06,-1.38160662029041e-07,-1.12761446707799e-07,3.47655464992119e-06,1,0,0,0,0,-0.216296219489663,6.61948357605125e-08,0.462462714646076,0.321809754914638,-0.216296219489663,6.61948357605125e-08,0.462462714646076,0.321809754914638,-12.392860501393,3.79268471463902e-06,26.4971617313831,18.4383407627481,0.9058,0.106,0.109,0.90579997604991,0.106000033571602,0.109000032346163,-2.39500896892508e-08,3.35716021648835e-08,3.23461630397093e-08,5.24111966227811e-08,1
-0.58267,0,0,0,-0.582668899914225,2.23904937957433e-07,1.76004044525198e-05,0.00010690139313696,1.10008577514087e-06,2.23904937957433e-07,1.76004044525198e-05,0.00010690139313696,6.30302720179495e-05,1.28288079570995e-05,0.00100842889285265,0.00612499865081661,0.4651,0.0281,0.41213,0.46510229257482,0.0281001164305672,0.412131481667391,2.29257481970668e-06,1.16430567156239e-07,1.48166739116773e-06,2.73217745378503e-06,1,0,0,0,0,-0.216296219489663,6.61948357605125e-08,0.462462714646076,0.321809754914638,-0.216296219489663,6.61948357605125e-08,0.462462714646076,0.321809754914638,-12.392860501393,3.79268471463902e-06,26.4971617313831,18.4383407627481,0.9058,0.106,0.109,0.90579997604991,0.106000033571602,0.109000032346163,-2.39500896892508e-08,3.35716021648835e-08,3.23461630397093e-08,5.24111966227811e-08,1
-0.60694,0,0,0,-0.606940392423094,-1.84048954716682e-07,4.43393056589696e-06,9.58261430594967e-05,-3.92423094242034e-07,-1.84048954716682e-07,4.43393056589696e-06,9.58261430594967e-05,-2.24841870835331e-05,-1.05452283290603e-05,0.000254045508079949,0.00549043356432601,0.45761,0.0281,0.42321,0.457608203471368,0.0280999042945432,0.423208752922524,-1.79652863219193e-06,-9.57054568442861e-08,-1.2470774759521e-06,2.18903560770085e-06,1,0,0,0,0,-0.216296219489663,6.61948357605125e-08,0.462462714646076,0.321809754914638,-0.216296219489663,6.61948357605125e-08,0.462462714646076,0.321809754914638,-12.392860501393,3.79268471463902e-06,26.4971617313831,18.4383407627481,0.9058,0.106,0.109,0.90579997604991,0.106000033571602,0.109000032346163,-2.39500896892508e-08,3.35716021648835e-08,3.23461630397093e-08,5.24111966227811e-08,1
-0.69595,0,0,0,-0.695949919558083,-2.85727499274018e-07,1.19374508655851e-05,0.000107313841894649,8.04419170163939e-08,-2.85727499274018e-07,1.19374508655851e-05,0.000107313841894649,4.60898234098097e-06,-1.63709797992285e-05,0.000683965552742816,0.00614863022389757,0.42789,0.0281,0.46219,0.427887391228835,0.0280998514216994,0.462187823947747,-2.60877116492475e-06,-1.48578300551705e-07,-2.17605225283357e-06,3.40043613517439e-06,1,0,0,0,0,-0.216296219489663,6.61948357605125e-08,0.462462714646076,0.321809754914638,-0.216296219489663,6.61948357605125e-08,0.462462714646076,0.321809754914638,-12.392860501393,3.79268471463902e-06,26.4971617313831,18.4383407627481,0.9058,0.106,0.109,0.90579997604991,0.106000033571602,0.109000032346163,-2.39500896892508e-08,3.35716021648835e-08,3.23461630397093e-08,5.24111966227811e-08,1
-0.71213,0,0,0,-0.712128212891143,-1.84151270656417e-08,2.02403197397427e-05,0.000105095210796163,1.78710885723188e-06,-1.84151270656417e-08,2.02403197397427e-05,0.000105095210796163,0.000102393795049834,-1.0551090600584e-06,0.00115968489708259,0.00602151202565784,0.42212,0.0281,0.46898,0.422119687616975,0.0280999904241339,0.468979708555399,-3.12383024614338e-07,-9.57586608271721e-09,-2.91444601230317e-07,4.2733453741154e-07,1,0,0,0,0,-0.216296219489663,6.61948357605125e-08,0.462462714646076,0.321809754914638,-0.216296219489663,6.61948357605125e-08,0.462462714646076,0.321809754914638,-12.392860501393,3.79268471463902e-06,26.4971617313831,18.4383407627481,0.9058,0.106,0.109,0.90579997604991,0.106000033571602,0.109000032346163,-2.39500896892508e-08,3.35716021648835e-08,3.23461630397093e-08,5.24111966227811e-08,1
-0.67976,0,0,0,-0.679760774788565,-1.73719508940861e-07,4.60154448518651e-06,0.000113923025668487,-7.74788564639195e-07,-1.73719508940861e-07,4.60154448518651e-06,0.000113923025668487,-4.43921147688248e-05,-9.95339468139652e-06,0.000263649078242886,0.00652730856016486,0.43355,0.0281,0.4553,0.433548392830914,0.028099909665855,0.455298699164494,-1.6071690863706e-06,-9.03341449975947e-08,-1.30083550642368e-06,2.06961971016665e-06,1,0,0,0,0,-0.216296219489663,6.61948357605125e-08,0.462462714646076,0.321809754914638,-0.216296219489663,6.61948357605125e-08,0.462462714646076,0.321809754914638,-12.392860501393,3.79268471463902e-06,26.4971617313831,18.4383407627481,0.9058,0.106,0.109,0.90579997604991,0.106000033571602,0.109000032346163,-2.39500896892508e-08,3.35716021648835e-08,3.23461630397093e-08,5.24111966227811e-08,1
-0.46939,0,0,0,-0.469389013268623,-3.88239067298394e-09,2.23475039366911e-05,0.000164932393516146,9.86731377050631e-07,-3.88239067298394e-09,2.23475039366911e-05,0.000164932393516146,5.65355434181331e-05,-2.22444599982935e-07,0.00128041765822439,0.00944993005346605,0.49642,0.0281,0.35819,0.496419843647057,0.0280999979811569,0.35818993017093,-1.56352943037064e-07,-2.01884314821044e-09,-6.98290699152615e-08,1.71249576727181e-07,1,0,0,0,0,-0.216296219489663,6.61948357605125e-08,0.462462714646076,0.321809754914638,-0.216296219489663,6.61948357605125e-08,0.462462714646076,0.321809754914638,-12.392860501393,3.79268471463902e-06,26.4971617313831,18.4383407627481,0.9058,0.106,0.109,0.90579997604991,0.106000033571602,0.109000032346163,-2.39500896892508e-08,3.35716021648835e-08,3.23461630397093e-08,5.24111966227811e-08,1
-0.44511,0,0,0,-0.445111892194146,2.97041570113304e-07,1.47919199269045e-05,0.000110581123604422,-1.89219414631348e-06,2.97041570113304e-07,1.47919199269045e-05,0.000110581123604422,-0.000108414738603122,1.70192283074317e-05,0.000847514582707092,0.00633583167634788,0.50232,0.0281,0.34619,0.502323264484201,0.0281001544616154,0.34619154238125,3.26448420140402e-06,1.54461615445994e-07,1.54238124988604e-06,3.6138145237218e-06,1,0,0,0,0,-0.216296219489663,6.61948357605125e-08,0.462462714646076,0.321809754914638,-0.216296219489663,6.61948357605125e-08,0.462462714646076,0.321809754914638,-12.392860501393,3.79268471463902e-06,26.4971617313831,18.4383407627481,0.9058,0.106,0.109,0.90579997604991,0.106000033571602,0.109000032346163,-2.39500896892508e-08,3.35716021648835e-08,3.23461630397093e-08,5.24111966227811e-08,1
-0.21855,0,0,0,-0.218542952538765,-3.01275197770598e-07,3.02726289230996e-08,0.000338159313682935,7.0474612352267e-06,-3.01275197770598e-07,3.02726289230996e-08,0.000338159313682935,0.000403789785060544,-1.72617973042244e-05,1.73449387205927e-06,0.0193751014770727,0.5429,0.0281,0.22844,0.542896512617489,0.0280998433368961,0.228439225486383,-3.48738251088054e-06,-1.5666310386811e-07,-7.74513616907946e-07,3.57578682922862e-06,1,0,0,0,0,-0.216296219489663,6.61948357605125e-08,0.462462714646076,0.321809754914638,-0.216296219489663,6.61948357605125e-08,0.462462714646076,0.321809754914638,-12.392860501393,3.79268471463902e-06,26.4971617313831,18.4383407627481,0.9058,0.106,0.109,0.90579997604991,0.106000033571602,0.109000032346163,-2.39500896892508e-08,3.35716021648835e-08,3.23461630397093e-08,5.24111966227811e-08,1
-0.072905,0,0,0,-0.0729117799988838,-2.99717084683514e-07,7.13367449239229e-06,0.000131092696444292,-6.7799988838213e-06,-2.99717084683514e-07,7.13367449239229e-06,0.000131092696444292,-0.00038846532114637,-1.71725240003304e-05,0.000408729440834208,0.00751105823124757,0.55454,0.0281,0.14913,0.554536457959064,0.028099844147115,0.149129741972117,-3.54204093599986e-06,-1.55852885045521e-07,-2.58027882754641e-07,3.55484493365809e-06,1,0,0,0,0,-0.216296219489663,6.61948357605125e-08,0.462462714646076,0.321809754914638,-0.216296219489663,6.61948357605125e-08,0.462462714646076,0.321809754914638,-12.392860501393,3.79268471463902e-06,26.4971617313831,18.4383407627481,0.9058,0.106,0.109,0.90579997604991,0.106000033571602,0.109000032346163,-2.39500896892508e-08,3.35716021648835e-08,3.23461630397093e-08,5.24111966227811e-08,1
0.18602,0,0,0,0.186015979612375,-3.5937343880819e-07,1.16642403984665e-05,0.000109035414685871,-4.02038762536971e-06,-3.5937343880819e-07,1.16642403984665e-05,0.000109035414685871,-0.000230351242940308,-2.05905813128123e-05,0.000668311746058122,0.00624726907895917,0.5465,0.0281,0.0071101,0.546495814285053,0.0280998131258104,0.00711088727353066,-4.18571494698039e-06,-1.86874189626179e-07,7.87273530664621e-07,4.26320667950882e-06,1,0,0,0,0,-0.216296219489663,6.61948357605125e-08,0.462462714646076,0.321809754914638,-0.216296219489663,6.61948357605125e-08,0.462462714646076,0.321809754914638,-12.392860501393,3.79268471463902e-06,26.4971617313831,18.4383407627481,0.9058,0.106,0.109,0.90579997604991,0.106000033571602,0.109000032346163,-2.39500896892508e-08,3.35716021648835e-08,3.23461630397093e-08,5.24111966227811e-08,1
-1.7317,0,0,0,-1.73168381764777,-1.43691153753787e-07,6.64746434239569e-05,8.59415928391386e-05,1.61823522284443e-05,-1.43691153753787e-07,6.64746434239569e-05,8.59415928391386e-05,0.000927180485283983,-8.23289666345737e-06,0.0038087165128298,0.00492409055431438,-0.083135,0.0281,0.65279,-0.0831346356833477,0.0280999252805999,0.652788067488688,3.6431665229042e-07,-7.47194001254892e-08,-1.932511311864e-06,1.96797093026639e-06,1,0,0,0,0,-0.216296219489663,6.61948357605125e-08,0.462462714646076,0.321809754914638,-0.216296219489663,6.61948357605125e-08,0.462462714646076,0.321809754914638,-12.392860501393,3.79268471463902e-06,26.4971617313831,18.4383407627481,0.9058,0.106,0.109,0.90579997604991,0.106000033571602,0.109000032346163,-2.39500896892508e-08,3.35716021648835e-08,3.23461630397093e-08,5.24111966227811e-08,1
-1.7397,0,0,0,-1.73974696374975,-3.37629932445451e-07,5.56341960744588e-06,0.00012154790022898,-4.69637497473308e-05,-3.37629932445451e-07,5.56341960744588e-06,0.00012154790022898,-0.00269082465063064,-1.93447701664115e-05,0.000318760463166978,0.00696418169179774,-0.087532,0.0281,0.65206,-0.0875313743918037,0.0280998244324338,0.65205639390172,6.25608196302974e-07,-1.75567566190055e-07,-3.60609828042868e-06,3.66417172000577e-06,1,0,0,0,0,-0.216296219489663,6.61948357605125e-08,0.462462714646076,0.321809754914638,-0.216296219489663,6.61948357605125e-08,0.462462714646076,0.321809754914638,-12.392860501393,3.79268471463902e-06,26.4971617313831,18.4383407627481,0.9058,0.106,0.109,0.90579997604991,0.106000033571602,0.109000032346163,-2.39500896892508e-08,3.35716021648835e-08,3.23461630397093e-08,5.24111966227811e-08,1
-1.7236,0,0,0,-1.72358772680227,2.93708624221967e-07,4.87548424631589e-05,9.64880633138846e-05,1.22731977298951e-05,2.93708624221967e-07,4.87548424631589e-05,9.64880633138846e-05,0.000703202431052532,1.68282645745126e-05,0.00279344670396421,0.00552835880127666,-0.078733,0.0281,0.65348,-0.0787336113180924,0.0281001527284835,0.653483909823113,-6.11318092383351e-07,1.52728483509418e-07,3.90982311304633e-06,3.96027178045416e-06,1,0,0,0,0,-0.216296219489663,6.61948357605125e-08,0.462462714646076,0.321809754914638,-0.216296219489663,6.61948357605125e-08,0.462462714646076,0.321809754914638,-12.392860501393,3.79268471463902e-06,26.4971617313831,18.4383407627481,0.9058,0.106,0.109,0.90579997604991,0.106000033571602,0.109000032346163,-2.39500896892508e-08,3.35716021648835e-08,3.23461630397093e-08,5.24111966227811e-08,1
-1.4889,0,0,0,-1.4889137090148,3.057497835354e-07,6.24674330678989e-06,0.000113367361910398,-1.3709014800467e-05,3.057497835354e-07,6.24674330678989e-06,0.000113367361910398,-0.000785468689349142,1.75181721836169e-05,0.000357912027180656,0.00649547137199794,0.05016,0.0281,0.65805,0.0501602992374479,0.0281001589898864,0.658054069968448,2.99237447896894e-07,1.58989886353544e-07,4.06996844748431e-06,4.08404995044189e-06,1,0,0,0,0,-0.216296219489663,6.61948357605125e-08,0.462462714646076,0.321809754914638,-0.216296219489663,6.61948357605125e-08,0.462462714646076,0.321809754914638,-12.392860501393,3.79268471463902e-06,26.4971617313831,18.4383407627481,0.9058,0.106,0.109,0.90579997604991,0.106000033571602,0.109000032346163,-2.39500896892508e-08,3.35716021648835e-08,3.23461630397093e-08,5.24111966227811e-08,1
-1.497,0,0,0,-1.49700493162949,5.49481547059858e-08,5.04169334016381e-06,0.000105817847938063,-4.93162949433135e-06,5.49481547059858e-08,5.04169334016381e-06,0.000105817847938063,-0.000282561556147423,3.1482973566849e-06,0.000288867749990601,0.0060629160840081,0.045716,0.0281,0.6584,0.0457160539892785,0.0281000285730404,0.658400714211469,5.39892785339502e-08,2.85730403989937e-08,7.14211468966219e-07,7.16818863616984e-07,1,0,0,0,0,-0.216296219489663,6.61948357605125e-08,0.462462714646076,0.321809754914638,-0.216296219489663,6.61948357605125e-08,0.462462714646076,0.321809754914638,-12.392860501393,3.79268471463902e-06,26.4971617313831,18.4383407627481,0.9058,0.106,0.109,0.90579997604991,0.106000033571602,0.109000032346163,-2.39500896892508e-08,3.35716021648835e-08,3.23461630397093e-08,5.24111966227811e-08,1
-1.497,0,0,0,-1.49700493162949,5.49481547059858e-08,5.04169334016381e-06,0.000105817847938063,-4.93162949433135e-06,5.49481547059858e-08,5.04169334016381e-06,0.000105817847938063,-0.000282561556147423,3.1482973566849e-06,0.000288867749990601,0.0060629160840081,0.045716,0.0281,0.6584,0.0457160539892785,0.0281000285730404,0.658400714211469,5.39892785339502e-08,2.85730403989937e-08,7.14211468966219e-07,7.16818863616984e-07,1,0,0,0,0,-0.216296219489663,6.61948357605125e-08,0.462462714646076,0.321809754914638,-0.216296219489663,6.61948357605125e-08,0.462462714646076,0.321809754914638,-12.392860501393,3.79268471463902e-06,26.4971617313831,18.4383407627481,0.9058,0.106,0.109,0.90579997604991,0.106000033571602,0.109000032346163,-2.39500896892508e-08,3.35716021648835e-08,3.23461630397093e-08,5.24111966227811e-08,1
-1.5213,0,0,0,-1.52129324023836,3.87643319065031e-07,3.64628290195466e-05,0.000103393777227889,6.75976163799774e-06,3.87643319065031e-07,3.64628290195466e-05,0.000103393777227889,0.000387305812371711,2.22103261388695e-05,0.00208916621192716,0.00592402706307388,0.032369,0.0281,0.65922,0.032369217557562,0.0281002015745241,0.659224672234659,2.17557562035009e-07,2.01574524117537e-07,4.67223465860922e-06,4.68163863264574e-06,1,0,0,0,0,-0.216296219489663,6.61948357605125e-08,0.462462714646076,0.321809754914638,-0.216296219489663,6.61948357605125e-08,0.462462714646076,0.321809754914638,-12.392860501393,3.79268471463902e-06,26.4971617313831,18.4383407627481,0.9058,0.106,0.109,0.90579997604991,0.106000033571602,0.109000032346163,-2.39500896892508e-08,3.35716021648835e-08,3.23461630397093e-08,5.24111966227811e-08,1
-1.5213,-8.1555e-05,0,0,-1.52130103607704,-8.10634382216902e-05,5.17306436922094e-05,6.88958916792068e-05,-1.03607703816344e-06,4.91561778309844e-07,5.17306436922094e-05,6.88958916792068e-05,-5.93628415371799e-05,2.81644152670995e-05,0.00296394755505865,0.00394744381900903,0.032369,0.028058,0.65923,0.0323688321597811,0.0280578469372854,0.659226548896138,-1.67840218896764e-07,-1.53062714620955e-07,-3.45110386246184e-06,3.45857143965329e-06,1,0,0,0,0,-0.216296219489663,6.61948357605125e-08,0.462462714646076,0.321809754914638,-0.216296219489663,6.61948357605125e-08,0.462462714646076,0.321809754914638,-12.392860501393,3.79268471463902e-06,26.4971617313831,18.4383407627481,0.9058,0.106,0.109,0.90579997604991,0.106000033571602,0.109000032346163,-2.39500896892508e-08,3.35716021648835e-08,3.23461630397093e-08,5.24111966227811e-08,1
-1.5213,-0.032447,0,0,-1.52129525978954,-0.0324461370792771,3.97670260542451e-05,0.000102733362017955,4.74021046481532e-06,8.62920722911886e-07,3.97670260542451e-05,0.000102733362017955,0.000271594053637664,4.9441715477229e-05,0.00227848275669503,0.0058861880588184,0.032392,0.011219,0.65969,0.0323919874608936,0.0112189685881169,0.659690075145704,-1.25391063504621e-08,-3.14118831414717e-08,7.51457041037185e-08,8.2406385892146e-08,1,0,0,0,0,-0.216296219489663,6.61948357605125e-08,0.462462714646076,0.321809754914638,-0.216296219489663,6.61948357605125e-08,0.462462714646076,0.321809754914638,-12.392860501393,3.79268471463902e-06,26.4971617313831,18.4383407627481,0.9058,0.106,0.109,0.90579997604991,0.106000033571602,0.109000032346163,-2.39500896892508e-08,3.35716021648835e-08,3.23461630397093e-08,5.24111966227811e-08,1
-1.5213,-0.8335,0,0,-1.52129799030781,-0.833499495537228,3.60255196949444e-05,0.000100865045953608,2.00969218577818e-06,5.04462771777625e-07,3.60255196949444e-05,0.000100865045953608,0.000115146880365511,2.89035877443292e-05,0.00206411023328574,0.00577914143353486,0.02477,-0.36432,0.50588,0.0247700683276801,-0.364321862773623,0.505881846746882,6.83276801215216e-08,-1.86277362351772e-06,1.84674688152864e-06,2.62394136534715e-06,1,0,0,0,0,-0.216296219489663,6.61948357605125e-08,0.462462714646076,0.321809754914638,-0.216296219489663,6.61948357605125e-08,0.462462714646076,0.321809754914638,-12.392860501393,3.79268471463902e-06,26.4971617313831,18.4383407627481,0.9058,0.106,0.109,0.90579997604991,0.106000033571602,0.109000032346163,-2.39500896892508e-08,3.35716021648835e-08,3.23461630397093e-08,5.24111966227811e-08,1
-1.5213,-1.0358,0,0,-1.521310911036,-1.03578196065945,4.38594244962183e-05,5.90991555623261e-05,-1.0911036002037e-05,1.80393405453394e-05,4.38594244962183e-05,5.90991555623261e-05,-0.000625156313032017,0.00103357807844717,0.002512959915506,0.00338613218650839,0.020724,-0.43041,0.42425,0.0207240414066157,-0.430411220781287,0.424250793287713,4.14066157160276e-08,-1.22078128667047e-06,7.93287713296564e-07,1.45647755004228e-06,1,0,0,0,0,-0.216296219489663,6.61948357605125e-08,0.462462714646076,0.321809754914638,-0.216296219489663,6.61948357605125e-08,0.462462714646076,0.321809754914638,-12.392860501393,3.79268471463902e-06,26.4971617313831,18.4383407627481,0.9058,0.106,0.109,0.90579997604991,0.106000033571602,0.109000032346163,-2.39500896892508e-08,3.35716021648835e-08,3.23461630397093e-08,5.24111966227811e-08,1
-1.5213,-1.2219,0,0,-1.52130934787602,-1.22188124241197,3.03951513331023e-05,9.89586887640027e-05,-9.34787602391296e-06,1.87575880299384e-05,3.03951513331023e-05,9.89586887640027e-05,-0.000535593843581746,0.00107473062796058,0.0017415138890482,0.00566991521232604,0.01649,-0.47557,0.33882,0.0164900430855788,-0.47557214193547,0.33882089433121,4.30855787887652e-08,-2.14193546999031e-06,8.94331210032906e-07,2.32154522633979e-06,1,0,0,0,0,-0.216296219489663,6.61948357605125e-08,0.462462714646076,0.321809754914638,-0.216296219489663,6.61948357605125e-08,0.462462714646076,0.321809754914638,-12.392860501393,3.79268471463902e-06,26.4971617313831,18.4383407627481,0.9058,0.106,0.109,0.90579997604991,0.106000033571602,0.109000032346163,-2.39500896892508e-08,3.35716021648835e-08,3.23461630397093e-08,5.24111966227811e-08,1
-1.5213,-1.2381,0,0,-1.52134591985398,-1.23806727123843,6.01871224742811e-05,2.12316251247223e-05,-4.59198539788375e-05,3.27287615662364e-05,6.01871224742811e-05,2.12316251247223e-05,-0.00263101382884441,0.00187521990643532,0.00344846809881329,0.00121648251185051,0.016103,-0.47873,0.33102,0.0161030679704378,-0.478733315957521,0.331021324290339,6.79704378198087e-08,-3.31595752084413e-06,1.32429033916637e-06,3.57126576480518e-06,1,0,0,0,0,-0.216296219489663,6.61948357605125e-08,0.462462714646076,0.321809754914638,-0.216296219489663,6.61948357605125e-08,0.462462714646076,0.321809754914638,-12.392860501393,3.79268471463902e-06,26.4971617313831,18.4383407627481,0.9058,0.106,0.109,0.90579997604991,0.106000033571602,0.109000032346163,-2.39500896892508e-08,3.35716021648835e-08,3.23461630397093e-08,5.24111966227811e-08,1
-1.5213,-0.99533,0,0,-1.52130240181231,-0.995325811362276,3.54877925093374e-05,7.59703750423219e-05,-2.40181230504177e-06,4.18863772377875e-06,3.54877925093374e-05,7.59703750423219e-05,-0.000137613708261481,0.000239991263481807,0.00203330073502101,0.00435278185795105,0.021585,-0.41854,0.44162,0.0215849522538672,-0.418538455341979,0.441618876142608,-4.77461328078632e-08,1.5446580213796e-06,-1.12385739170495e-06,1.91083843720506e-06,1,0,0,0,0,-0.216296219489663,6.61948357605125e-08,0.462462714646076,0.321809754914638,-0.216296219489663,6.61948357605125e-08,0.462462714646076,0.321809754914638,-12.392860501393,3.79268471463902e-06,26.4971617313831,18.4383407627481,0.9058,0.106,0.109,0.90579997604991,0.106000033571602,0.109000032346163,-2.39500896892508e-08,3.35716021648835e-08,3.23461630397093e-08,5.24111966227811e-08,1
-1.5213,-0.65549,0,0,-1.52129400132155,-0.655486505537334,3.27082625265076e-05,9.60247778780726e-05,5.99867845108015e-06,3.49446266645348e-06,3.27082625265076e-05,9.60247778780726e-05,0.000343698957902967,0.000200217962453816,0.00187404539797479,0.00550181450109475,0.027723,-0.29359,0.56547,0.027722896495738,-0.293588662875227,0.565468132902489,-1.03504261994569e-07,1.33712477340397e-06,-1.86709751059944e-06,2.29884077438788e-06,1,0,0,0,0,-0.216296219489663,6.61948357605125e-08,0.462462714646076,0.321809754914638,-0.216296219489663,6.61948357605125e-08,0.462462714646076,0.321809754914638,-12.392860501393,3.79268471463902e-06,26.4971617313831,18.4383407627481,0.9058,0.106,0.109,0.90579997604991,0.106000033571602,0.109000032346163,-2.39500896892508e-08,3.35716021648835e-08,3.23461630397093e-08,5.24111966227811e-08,1
-1.5213,-0.6474,0,0,-1.52129895605618,-0.647393208733726,4.23040214868367e-05,9.6670699464481e-05,1.04394381739148e-06,6.79126627356474e-06,4.23040214868367e-05,9.6670699464481e-05,5.98135747853077e-05,0.000389110895024798,0.00242384188762649,0.00553882308189235,0.027842,-0.29013,0.56787,0.0278420239986443,-0.290130128144882,0.56787019301039,2.39986443148488e-08,-1.28144881816894e-07,1.93010390225901e-07,2.32916415050487e-07,1,0,0,0,0,-0.216296219489663,6.61948357605125e-08,0.462462714646076,0.321809754914638,-0.216296219489663,6.61948357605125e-08,0.462462714646076,0.321809754914638,-12.392860501393,3.79268471463902e-06,26.4971617313831,18.4383407627481,0.9058,0.106,0.109,0.90579997604991,0.106000033571602,0.109000032346163,-2.39500896892508e-08,3.35716021648835e-08,3.23461630397093e-08,5.24111966227811e-08,1
-1.5213,-0.65549,0,0,-1.52129400132155,-0.655486505537334,3.27082625265076e-05,9.60247778780726e-05,5.99867845108015e-06,3.49446266645348e-06,3.27082625265076e-05,9.60247778780726e-05,0.000343698957902967,0.000200217962453816,0.00187404539797479,0.00550181450109475,0.027723,-0.29359,0.56547,0.027722896495738,-0.293588662875227,0.565468132902489,-1.03504261994569e-07,1.33712477340397e-06,-1.86709751059944e-06,2.29884077438788e-06,1,0,0,0,0,-0.216296219489663,6.61948357605125e-08,0.462462714646076,0.321809754914638,-0.216296219489663,6.61948357605125e-08,0.462462714646076,0.321809754914638,-12.392860501393,3.79268471463902e-06,26.4971617313831,18.4383407627481,0.9058,0.106,0.109,0.90579997604991,0.106000033571602,0.109000032346163,-2.39500896892508e-08,3.35716021648835e-08,3.23461630397093e-08,5.24111966227811e-08,1
-1.5213,-0.65549,0.62832,0,-1.52124402823839,-0.655487941103203,0.628274430476348,5.15454656183084e-05,5.59717616059885e-05,2.05889679727456e-06,-4.55695236522002e-05,5.15454656183084e-05,0.00320694571193552,0.000117966096936834,-0.00261094137969265,0.00295333763296576,0.17262,-0.26449,0.52039,0.172619996402555,-0.264489986590884,0.520389990001101,-3.59744478650725e-09,1.34091155956639e-08,-9.99889948616328e-09,1.71091782673582e-08,1,0,0,0,0,-0.216296219489663,6.61948357605125e-08,0.462462714646076,0.321809754914638,-0.216296219489663,6.61948357605125e-08,0.462462714646076,0.321809754914638,-12.392860501393,3.79268471463902e-06,26.4971617313831,18.4383407627481,0.9058,0.106,0.109,0.90579997604991,0.106000033571602,0.109000032346163,-2.39500896892508e-08,3.35716021648835e-08,3.23461630397093e-08,5.24111966227811e-08,1
-1.5213,-0.65549,0.62832,-8.1555e-05,-1.52124371911914,-0.655488027646801,0.628274036693646,-8.23896730243826e-05,5.62808808626247e-05,1.97235319865374e-06,-4.59633063535358e-05,-8.34673024382589e-07,0.003224656940707,0.000113007513991987,-0.00263350346652445,-4.78232415705424e-05,0.17262,-0.26449,0.52039,0.172620045137612,-0.264490055463449,0.52038996465592,4.51376124810388e-08,-5.54634485561145e-08,-3.53440797740134e-08,7.97671747105099e-08,1,0,0,0,0,-0.216296219489663,6.61948357605125e-08,0.462462714646076,0.321809754914638,-0.216296219489663,6.61948357605125e-08,0.462462714646076,0.321809754914638,-12.392860501393,3.79268471463902e-06,26.4971617313831,18.4383407627481,0.9058,0.106,0.109,0.90579997604991,0.106000033571602,0.109000032346163,-2.39500896892508e-08,3.35716021648835e-08,3.23461630397093e-08,5.24111966227811e-08,1
-1.5213,-0.65549,0.62832,-8.1555e-05,-1.52124371911914,-0.655488027646801,0.628274036693646,-8.23896730243826e-05,5.62808808626247e-05,1.97235319865374e-06,-4.59633063535358e-05,-8.34673024382589e-07,0.003224656940707,0.000113007513991987,-0.00263350346652445,-4.78232415705424e-05,0.17262,-0.26449,0.52039,0.172620045137612,-0.264490055463449,0.52038996465592,4.51376124810388e-08,-5.54634485561145e-08,-3.53440797740134e-08,7.97671747105099e-08,1,0,0,0,0,-0.216296219489663,6.61948357605125e-08,0.462462714646076,0.321809754914638,-0.216296219489663,6.61948357605125e-08,0.462462714646076,0.321809754914638,-12.392860501393,3.79268471463902e-06,26.4971617313831,18.4383407627481,0.9058,0.106,0.109,0.90579997604991,0.106000033571602,0.109000032346163,-2.39500896892508e-08,3.35716021648835e-08,3.23461630397093e-08,5.24111966227811e-08,1
-1.5213,-0.65549,0.62832,-0.84969,-1.52124392872635,-0.655487931544286,0.628274239537431,-0.858445116362033,5.60712736499269e-05,2.06845571437686e-06,-4.57604625687669e-05,-0.00875511636203352,0.00321264733206392,0.000118513782543512,-0.00262188137375672,-0.501631216690452,0.17262,-0.26449,0.52039,0.172619999998175,-0.264489999980787,0.520390000033639,-1.82465154097144e-12,1.92125204634408e-11,3.36393135569324e-11,3.87821313543456e-11,1,0,0,0,0,-0.216296219489663,6.61948357605125e-08,0.462462714646076,0.321809754914638,-0.216296219489663,6.61948357605125e-08,0.462462714646076,0.321809754914638,-12.392860501393,3.79268471463902e-06,26.4971617313831,18.4383407627481,0.9058,0.106,0.109,0.90579997604991,0.106000033571602,0.109000032346163,-2.39500896892508e-08,3.35716021648835e-08,3.23461630397093e-08,5.24111966227811e-08,1
-1.5213,-0.65549,0.62832,-1.0358,-1.52124392872635,-0.655487931544286,0.628274239537431,-1.04647277422094,5.60712736499269e-05,2.06845571437686e-06,-4.57604625687669e-05,-0.0106727742209449,0.00321264733206392,0.000118513782543512,-0.00262188137375672,-0.611504918556169,0.17262,-0.26449,0.52039,0.172619999998175,-0.264489999980787,0.520390000033639,-1.82465154097144e-12,1.92125204634408e-11,3.36393135569324e-11,3.87821313543456e-11,1,0,0,0,0,-0.216296219489663,6.61948357605125e-08,0.462462714646076,0.321809754914638,-0.216296219489663,6.61948357605125e-08,0.462462714646076,0.321809754914638,-12.392860501393,3.79268471463902e-06,26.4971617313831,18.4383407627481,0.9058,0.106,0.109,0.90579997604991,0.106000033571602,0.109000032346163,-2.39500896892508e-08,3.35716021648835e-08,3.23461630397093e-08,5.24111966227811e-08,1
-1.5213,-0.65549,0.62832,-1.0277,-1.52124392872635,-0.655487931544286,0.628274239537431,-1.03828931267317,5.60712736499269e-05,2.06845571437686e-06,-4.57604625687669e-05,-0.0105893126731651,0.00321264733206392,0.000118513782543512,-0.00262188137375672,-0.606722924116756,0.17262,-0.26449,0.52039,0.172619999998175,-0.264489999980787,0.520390000033639,-1.82465154097144e-12,1.92125204634408e-11,3.36393135569324e-11,3.87821313543456e-11,1,0,0,0,0,-0.216296219489663,6.61948357605125e-08,0.462462714646076,0.321809754914638,-0.216296219489663,6.61948357605125e-08,0.462462714646076,0.321809754914638,-12.392860501393,3.79268471463902e-06,26.4971617313831,18.4383407627481,0.9058,0.106,0.109,0.90579997604991,0.106000033571602,0.109000032346163,-2.39500896892508e-08,3.35716021648835e-08,3.23461630397093e-08,5.24111966227811e-08,1
-1.5213,-0.65549,0.62832,-0.93869,-1.52124392872635,-0.655487931544286,0.628274239537431,-0.948362162998125,5.60712736499269e-05,2.06845571437686e-06,-4.57604625687669e-05,-0.00967216299812523,0.00321264733206392,0.000118513782543512,-0.00262188137375672,-0.554174118555177,0.17262,-0.26449,0.52039,0.172619999998175,-0.264489999980787,0.520390000033639,-1.82465154097144e-12,1.92125204634408e-11,3.36393135569324e-11,3.87821313543456e-11,1,0,0,0,0,-0.216296219489663,6.61948357605125e-08,0.462462714646076,0.321809754914638,-0.216296219489663,6.61948357605125e-08,0.462462714646076,0.321809754914638,-12.392860501393,3.79268471463902e-06,26.4971617313831,18.4383407627481,0.9058,0.106,0.109,0.90579997604991,0.106000033571602,0.109000032346163,-2.39500896892508e-08,3.35716021648835e-08,3.23461630397093e-08,5.24111966227811e-08,1
-1.5213,-0.65549,0.62832,-0.50175,-1.52124392905817,-0.655487931781607,0.628274239860205,-0.506920502270294,5.60709418304661e-05,2.06821839332516e-06,-4.57601397945151e-05,-0.00517050227029436,0.00321262832020925,0.00011850018504886,-0.00262186288015436,-0.296247958050677,0.17262,-0.26449,0.52039,0.172619999921839,-0.264490000044026,0.520389999984492,-7.81610609568162e-11,-4.40257830192081e-11,-1.55083723640814e-11,9.1038072440779e-11,1,0,0,0,0,-0.216296219489663,6.61948357605125e-08,0.462462714646076,0.321809754914638,-0.216296219489663,6.61948357605125e-08,0.462462714646076,0.321809754914638,-12.392860501393,3.79268471463902e-06,26.4971617313831,18.4383407627481,0.9058,0.106,0.109,0.90579997604991,0.106000033571602,0.109000032346163,-2.39500896892508e-08,3.35716021648835e-08,3.23461630397093e-08,5.24111966227811e-08,1
-1.5213,-0.65549,0.62832,-0.32374,-1.52124392922253,-0.655487931927237,0.628274240613993,-0.327075532224775,5.60707774721614e-05,2.06807276270649e-06,-4.57593860070382e-05,-0.00333553222477456,0.00321261890317206,0.000118491841029042,-0.00262181969131329,-0.191111918909464,0.17262,-0.26449,0.52039,0.172620000000203,-0.264490000033059,0.520389999877535,2.02782235447785e-13,-3.30586669150534e-11,-1.22465149132722e-10,1.2684884442097e-10,1,0,0,0,0,-0.216296219489663,6.61948357605125e-08,0.462462714646076,0.321809754914638,-0.216296219489663,6.61948357605125e-08,0.462462714646076,0.321809754914638,-12.392860501393,3.79268471463902e-06,26.4971617313831,18.4383407627481,0.9058,0.106,0.109,0.90579997604991,0.106000033571602,0.109000032346163,-2.39500896892508e-08,3.35716021648835e-08,3.23461630397093e-08,5.24111966227811e-08,1
-1.5213,-0.65549,0.62832,-0.32374,-1.52124392922253,-0.655487931927237,0.628274240613993,-0.327075532224775,5.60707774721614e-05,2.06807276270649e-06,-4.57593860070382e-05,-0.00333553222477456,0.00321261890317206,0.000118491841029042,-0.00262181969131329,-0.191111918909464,0.17262,-0.26449,0.52039,0.172620000000203,-0.264490000033059,0.520389999877535,2.02782235447785e-13,-3.30586669150534e-11,-1.22465149132722e-10,1.2684884442097e-10,1,-0.0041263,0,0,0,-0.220382626863595,-6.48504592444717e-08,0.462389433738472,-0.649882707527411,-0.216256326863595,-6.48504592444717e-08,0.462389433738472,-0.649882707527411,-12.3905748222856,-3.71565761419338e-06,26.4929630446585,-37.2355363198555,0.9058,0.106,0.10673,0.905800028196827,0.105999967109655,0.106729984171991,2.8196827095428e-08,-3.28903452667673e-08,-1.58280093476293e-08,4.61233319473481e-08,1
-1.5213,-0.65549,0.62832,-0.32374,-1.52124392922253,-0.655487931927237,0.628274240613993,-0.327075532224775,5.60707774721614e-05,2.06807276270649e-06,-4.57593860070382e-05,-0.00333553222477456,0.00321261890317206,0.000118491841029042,-0.00262181969131329,-0.191111918909464,0.17262,-0.26449,0.52039,0.172620000000203,-0.264490000033059,0.520389999877535,2.02782235447785e-13,-3.30586669150534e-11,-1.22465149132722e-10,1.2684884442097e-10,1,-0.27924,0,0,0,-0.495544055262918,-8.88540591582183e-08,0.462485451022959,0.261063590743397,-0.216304055262918,-8.88540591582183e-08,0.462485451022959,0.261063590743397,-12.3933094581297,-5.09096258237165e-06,26.4984644298199,14.9578419341272,0.88446,0.106,-0.04284,0.884459985922144,0.105999954936707,-0.0428399926234823,-1.40778563251232e-08,-4.50632934162476e-08,7.37651774385117e-09,4.77838829131223e-08,1
-1.5213,-0.65549,0.62832,-0.32374,-1.52124392922253,-0.655487931927237,0.628274240613993,-0.327075532224775,5.60707774721614e-05,2.06807276270649e-06,-4.57593860070382e-05,-0.00333553222477456,0.00321261890317206,0.000118491841029042,-0.00262181969131329,-0.191111918909464,0.17262,-0.26449,0.52039,0.172620000000203,-0.264490000033059,0.520389999877535,2.02782235447785e-13,-3.30586669150534e-11,-1.22465149132722e-10,1.2684884442097e-10,1,-0.72427,0,0,0,-0.940533018471199,-2.01128056236311e-08,0.462405067278714,-0.719599391795198,-0.216263018471199,-2.01128056236311e-08,0.462405067278714,-0.719599391795198,-12.3909582231594,-1.15237887640105e-06,26.4938587805332,-41.2300080900458,0.76752,0.106,-0.25602,0.767519998751733,0.105999989799383,-0.256020026255503,-1.24826737835093e-09,-1.02006172397751e-08,-2.62555033270218e-08,2.81950743654898e-08,1
-1.5213,-0.65549,0.62832,-0.32374,-1.52124392922253,-0.655487931927237,0.628274240613993,-0.327075532224775,5.60707774721614e-05,2.06807276270649e-06,-4.57593860070382e-05,-0.00333553222477456,0.00321261890317206,0.000118491841029042,-0.00262181969131329,-0.191111918909464,0.17262,-0.26449,0.52039,0.172620000000203,-0.264490000033059,0.520389999877535,2.02782235447785e-13,-3.30586669150534e-11,-1.22465149132722e-10,1.2684884442097e-10,1,-0.76473,0,0,0,-0.981047384055098,-2.84976572081761e-08,0.462504981656499,-0.127360987024055,-0.216317384055098,-2.84976572081761e-08,0.462504981656499,-0.127360987024055,-12.3940731416676,-1.63279548403906e-06,26.4995834526929,-7.29724703109881,0.75241,0.106,-0.27241,0.752410019140587,0.105999985547172,-0.272409961189427,1.91405871152739e-08,-1.44528281148526e-08,3.88105726445431e-08,4.5623534109407e-08,1
-1.5213,-0.65549,0.62832,-0.32374,-1.52124392922253,-0.655487931927237,0.628274240613993,-0.327075532224775,5.60707774721614e-05,2.06807276270649e-06,-4.57593860070382e-05,-0.00333553222477456,0.00321261890317206,0.000118491841029042,-0.00262181969131329,-0.191111918909464,0.17262,-0.26449,0.52039,0.172620000000203,-0.264490000033059,0.520389999877535,2.02782235447785e-13,-3.30586669150534e-11,-1.22465149132722e-10,1.2684884442097e-10,1,-0.036493,0,0,0,-0.252813424772795,4.78731650708976e-08,0.462512027011961,-0.296375033891187,-0.216320424772795,4.78731650708976e-08,0.462512027011961,-0.296375033891187,-12.3942473619584,2.74293031049554e-06,26.4999871218261,-16.9810385950117,0.90543,0.106,0.0889,0.905429983413103,0.106000024279241,0.0888999572895766,-1.65868965229521e-08,2.42792410620751e-08,-4.2710423364678e-08,5.18535143148804e-08,1
-1.5213,-0.65549,0.62832,-0.32374,-1.52124392922253,-0.655487931927237,0.628274240613993,-0.327075532224775,5.60707774721614e-05,2.06807276270649e-06,-4.57593860070382e-05,-0.00333553222477456,0.00321261890317206,0.000118491841029042,-0.00262181969131329,-0.191111918909464,0.17262,-0.26449,0.52039,0.172620000000203,-0.264490000033059,0.520389999877535,2.02782235447785e-13,-3.30586669150534e-11,-1.22465149132722e-10,1.2684884442097e-10,1,0.8212,0,0,0,0.604903612397134,-1.6518285010837e-08,0.462471447025502,0.285033084591206,-0.216296387602866,-1.6518285010837e-08,0.462471447025502,0.285033084591206,-12.39287013357,-9.46428015915167e-07,26.4976620598693,16.3311927686715,0.73025,0.106,0.51224,0.730250045983761,0.105999991622546,0.51224000699023,4.59837611321845e-08,-8.37745355031227e-09,6.99023006145438e-09,4.72604626740101e-08,1
-1.5213,-0.65549,0.62832,-0.32374,-1.52124392922253,-0.655487931927237,0.628274240613993,-0.327075532224775,5.60707774721614e-05,2.06807276270649e-06,-4.57593860070382e-05,-0.00333553222477456,0.00321261890317206,0.000118491841029042,-0.00262181969131329,-0.191111918909464,0.17262,-0.26449,0.52039,0.172620000000203,-0.264490000033059,0.520389999877535,2.02782235447785e-13,-3.30586669150534e-11,-1.22465149132722e-10,1.2684884442097e-10,1,1.2015,0,0,0,0.985207607079893,-4.33977294614256e-08,0.462464475949275,-0.604735888600576,-0.216292392920107,-4.33977294614256e-08,0.462464475949275,-0.604735888600576,-12.3926412551074,-2.48650673859024e-06,26.4972626466228,-34.6488141369065,0.55375,0.106,0.62276,0.553750002815552,0.105999977990266,0.622759994534442,2.81555179171278e-09,-2.20097336606218e-08,-5.4655584502683e-09,2.28523092241599e-08,1
-1.5213,-0.65549,0.62832,-0.32374,-1.52124392922253,-0.655487931927237,0.628274240613993,-0.327075532224775,5.60707774721614e-05,2.06807276270649e-06,-4.57593860070382e-05,-0.00333553222477456,0.00321261890317206,0.000118491841029042,-0.00262181969131329,-0.191111918909464,0.17262,-0.26449,0.52039,0.172620000000203,-0.264490000033059,0.520389999877535,2.02782235447785e-13,-3.30586669150534e-11,-1.22465149132722e-10,1.2684884442097e-10,1,1.2015,-0.0041263,0,0,0.98521243408232,0.00423898193100371,0.462534544429887,-0.421617337701911,-0.21628756591768,0.00836528193100371,0.462534544429887,-0.421617337701911,-12.3923646882407,0.47929534908356,26.5012772748388,-24.1568940198615,0.55378,0.10815,0.62284,0.553779993721946,0.108150019160911,0.622839983375829,-6.27805396558045e-09,1.91609107469404e-08,-1.66241707066916e-08,2.61326905222593e-08,1
-1.5213,-0.65549,0.62832,-0.32374,-1.52124392922253,-0.655487931927237,0.628274240613993,-0.327075532224775,5.60707774721614e-05,2.06807276270649e-06,-4.57593860070382e-05,-0.00333553222477456,0.00321261890317206,0.000118491841029042,-0.00262181969131329,-0.191111918909464,0.17262,-0.26449,0.52039,0.172620000000203,-0.264490000033059,0.520389999877535,2.02782235447785e-13,-3.30586669150534e-11,-1.22465149132722e-10,1.2684884442097e-10,1,1.2015,-0.4087,0,0,0.971199963134718,0.419387341496469,0.46170003425257,-0.435196924218826,-0.230300036865282,0.828087341496469,0.46170003425257,-0.435196924218826,-13.1952201340879,47.4459097359562,26.4534633637178,-24.9349470148135,0.54156,0.31453,0.59127,0.541559994099848,0.314530021788799,0.59126997496849,-5.90015225565566e-09,2.17887994868882e-08,-2.50315097538589e-08,3.37066767907676e-08,1
-1.5213,-0.65549,0.62832,-0.32374,-1.52124392922253,-0.655487931927237,0.628274240613993,-0.327075532224775,5.60707774721614e-05,2.06807276270649e-06,-4.57593860070382e-05,-0.00333553222477456,0.00321261890317206,0.000118491841029042,-0.00262181969131329,-0.191111918909464,0.17262,-0.26449,0.52039,0.172620000000203,-0.264490000033059,0.520389999877535,2.02782235447785e-13,-3.30586669150534e-11,-1.22465149132722e-10,1.2684884442097e-10,1,1.2015,-0.84564,0,0,0.898878594880347,0.87193946297737,0.45763397204548,0.125858582622461,-0.302621405119653,1.71757946297737,0.45763397204548,0.125858582622461,-17.3389293036748,98.4100542069497,26.2204951600139,7.21116559976559,0.4967,0.50284,0.47537,0.496700003854224,0.502839983481919,0.475370016800505,3.85422443960337e-09,-1.65180813471721e-08,1.68005048761799e-08,2.38738145573173e-08,1
-1.5213,-0.65549,0.62832,-0.32374,-1.52124392922253,-0.655487931927237,0.628274240613993,-0.327075532224775,5.60707774721614e-05,2.06807276270649e-06,-4.57593860070382e-05,-0.00333553222477456,0.00321261890317206,0.000118491841029042,-0.00262181969131329,-0.191111918909464,0.17262,-0.26449,0.52039,0.172620000000203,-0.264490000033059,0.520389999877535,2.02782235447785e-13,-3.30586669150534e-11,-1.22465149132722e-10,1.2684884442097e-10,1,1.2015,-0.8861,0,0,1.19754107921459,0.884882088188104,0.00576972147481757,0.00388796998590263,-0.00395892078541293,1.7709820881881,0.00576972147481757,0.00388796998590263,-0.226829452430778,101.469799246444,0.330580689473044,0.222764271065759,0.49114,0.51718,0.46098,0.494740930710608,0.52836007112096,0.47028271319344,0.00360093071060824,0.01118007112096,0.00930271319344039,0.0149833629406664,0
-1.5213,-0.65549,0.62832,-0.32374,-1.52124392922253,-0.655487931927237,0.628274240613993,-0.327075532224775,5.60707774721614e-05,2.06807276270649e-06,-4.57593860070382e-05,-0.00333553222477456,0.00321261890317206,0.000118491841029042,-0.00262181969131329,-0.191111918909464,0.17262,-0.26449,0.52039,0.172620000000203,-0.264490000033059,0.520389999877535,2.02782235447785e-13,-3.30586669150534e-11,-1.22465149132722e-10,1.2684884442097e-10,1,1.2015,-0.84564,0,0,0.898878594880347,0.87193946297737,0.45763397204548,0.125858582622461,-0.302621405119653,1.71757946297737,0.45763397204548,0.125858582622461,-17.3389293036748,98.4100542069497,26.2204951600139,7.21116559976559,0.4967,0.50284,0.47537,0.496700003854224,0.502839983481919,0.475370016800505,3.85422443960337e-09,-1.65180813471721e-08,1.68005048761799e-08,2.38738145573173e-08,1
-1.5213,-0.65549,0.62832,-0.32374,-1.52124392922253,-0.655487931927237,0.628274240613993,-0.327075532224775,5.60707774721614e-05,2.06807276270649e-06,-4.57593860070382e-05,-0.00333553222477456,0.00321261890317206,0.000118491841029042,-0.00262181969131329,-0.191111918909464,0.17262,-0.26449,0.52039,0.172620000000203,-0.264490000033059,0.520389999877535,2.02782235447785e-13,-3.30586669150534e-11,-1.22465149132722e-10,1.2684884442097e-10,1,1.2015,-0.82136,0,0,0.905666672070814,0.846525312475895,0.457920332550158,1.36963474318875,-0.295833327929186,1.6678853124759,0.457920332550158,1.36963474318875,-16.950001129652,95.5627891167273,26.2369024083512,78.4742902591998,0.49994,0.49395,0.48374,0.499940000269807,0.493949992005521,0.483740006130835,2.69806899044767e-10,-7.9944790787323e-09,6.13083461775688e-09,1.00782748828034e-08,1
-1.5213,-0.65549,0.62832,-0.32374,-1.52124392922253,-0.655487931927237,0.628274240613993,-0.327075532224775,5.60707774721614e-05,2.06807276270649e-06,-4.57593860070382e-05,-0.00333553222477456,0.00321261890317206,0.000118491841029042,-0.00262181969131329,-0.191111918909464,0.17262,-0.26449,0.52039,0.172620000000203,-0.264490000033059,0.520389999877535,2.02782235447785e-13,-3.30586669150534e-11,-1.22465149132722e-10,1.2684884442097e-10,1,1.2015,-0.82136,-0.0081725,0,1.49235046475006,0.846536766332527,-0.458080260017839,-0.287558778287011,0.290850464750059,1.66789676633253,-0.449907760017839,-0.287558778287011,16.6645040995969,95.5634453743715,-25.7778158192069,-16.4759043577839,0.50185,0.49394,0.48299,0.501849985082381,0.49394000535721,0.482990005379131,-1.49176191399647e-08,5.35720956484909e-09,5.37913108500376e-09,1.67382826585168e-08,1
-1.5213,-0.65549,0.62832,-0.32374,-1.52124392922253,-0.655487931927237,0.628274240613993,-0.327075532224775,5.60707774721614e-05,2.06807276270649e-06,-4.57593860070382e-05,-0.00333553222477456,0.00321261890317206,0.000118491841029042,-0.00262181969131329,-0.191111918909464,0.17262,-0.26449,0.52039,0.172620000000203,-0.264490000033059,0.520389999877535,2.02782235447785e-13,-3.30586669150534e-11,-1.22465149132722e-10,1.2684884442097e-10,1,1.2015,-0.82136,-0.064812,0,1.45988236331767,0.846556232898789,-0.462468622724535,0.00954026511198571,0.258382363317673,1.66791623289879,-0.397656622724536,0.00954026511198571,14.8042189187185,95.5645607264599,-22.7840461775419,0.546616926352685,0.51491,0.49356,0.47756,0.514909967693337,0.493559980837174,0.477560007784798,-3.23066625673718e-08,-1.91628263812582e-08,7.7847983614987e-09,3.83606236483384e-08,1
-1.5213,-0.65549,0.62832,-0.32374,-1.52124392922253,-0.655487931927237,0.628274240613993,-0.327075532224775,5.60707774721614e-05,2.06807276270649e-06,-4.57593860070382e-05,-0.00333553222477456,0.00321261890317206,0.000118491841029042,-0.00262181969131329,-0.191111918909464,0.17262,-0.26449,0.52039,0.172620000000203,-0.264490000033059,0.520389999877535,2.02782235447785e-13,-3.30586669150534e-11,-1.22465149132722e-10,1.2684884442097e-10,1,1.2015,-0.82136,-0.69595,0,1.29935272567165,0.849671500714245,-0.826355949033686,0.00458908375277634,0.0978527256716484,1.67103150071424,-0.130405949033687,0.00458908375277634,5.6065481948369,95.7430524243384,-7.47171050302835,0.262935130866142,0.63512,0.45139,0.38895,0.635120002220052,0.451390001682395,0.388950046240215,2.22005214212118e-09,1.68239494557909e-09,4.62402152123786e-08,4.63240389771201e-08,1
-1.5213,-0.65549,0.62832,-0.32374,-1.52124392922253,-0.655487931927237,0.628274240613993,-0.327075532224775,5.60707774721614e-05,2.06807276270649e-06,-4.57593860070382e-05,-0.00333553222477456,0.00321261890317206,0.000118491841029042,-0.00262181969131329,-0.191111918909464,0.17262,-0.26449,0.52039,0.172620000000203,-0.264490000033059,0.520389999877535,2.02782235447785e-13,-3.30586669150534e-11,-1.22465149132722e-10,1.2684884442097e-10,1,1.2015,-0.82136,-0.81732,0,1.28949984191108,0.851021389344424,-0.928600873725581,0.0068135916859606,0.0879998419110848,1.67238138934442,-0.111280873725581,0.0068135916859606,5.04201953932361,95.8203953456604,-6.37592440500404,0.39039004693097,0.65056,0.43615,0.36776,0.650560077877565,0.436149960119774,0.367759983203896,7.78775645082774e-08,-3.98802260659359e-08,-1.67961041741549e-08,8.90924048403686e-08,1
-1.5213,-0.65549,0.62832,-0.32374,-1.52124392922253,-0.655487931927237,0.628274240613993,-0.327075532224775,5.60707774721614e-05,2.06807276270649e-06,-4.57593860070382e-05,-0.00333553222477456,0.00321261890317206,0.000118491841029042,-0.00262181969131329,-0.191111918909464,0.17262,-0.26449,0.52039,0.172620000000203,-0.264490000033059,0.520389999877535,2.02782235447785e-13,-3.30586669150534e-11,-1.22465149132722e-10,1.2684884442097e-10,1,1.2015,-0.82136,0.38831,0,1.05863858699265,0.847456373133944,0.597574209983452,0.00464618778656259,-0.142861413007346,1.66881637313394,0.209264209983452,0.00464618778656259,-8.18535602059628,95.6161349629041,11.9899560351912,0.266206950995266,0.40709,0.48032,0.50608,0.407090021536494,0.480320052770065,0.506080005461237,2.15364935329809e-08,5.27700648733642e-08,5.46123724021186e-09,5.72566626047054e-08,1
-1.5213,-0.65549,0.62832,-0.32374,-1.52124392922253,-0.655487931927237,0.628274240613993,-0.327075532224775,5.60707774721614e-05,2.06807276270649e-06,-4.57593860070382e-05,-0.00333553222477456,0.00321261890317206,0.000118491841029042,-0.00262181969131329,-0.191111918909464,0.17262,-0.26449,0.52039,0.172620000000203,-0.264490000033059,0.520389999877535,2.02782235447785e-13,-3.30586669150534e-11,-1.22465149132722e-10,1.2684884442097e-10,1,1.2015,-0.82136,1.4887,0,1.13519558809926,0.866157810875466,1.54007927459984,0.00894459457382385,-0.0663044119007365,1.68751781087547,0.0513792745998385,0.00894459457382385,-3.79896296500919,96.68764841632,2.94381558901446,0.512487518535724,0.21115,0.32593,0.42787,0.211149984549651,0.3259299244569,0.427869988716093,-1.54503485561008e-08,-7.554309960911e-08,-1.12839066424009e-08,7.79281702478079e-08,1
-1.5213,-0.65549,0.62832,-0.32374,-1.52124392922253,-0.655487931927237,0.628274240613993,-0.327075532224775,5.60707774721614e-05,2.06807276270649e-06,-4.57593860070382e-05,-0.00333553222477456,0.00321261890317206,0.000118491841029042,-0.00262181969131329,-0.191111918909464,0.17262,-0.26449,0.52039,0.172620000000203,-0.264490000033059,0.520389999877535,2.02782235447785e-13,-3.30586669150534e-11,-1.22465149132722e-10,1.2684884442097e-10,1,1.2015,-0.82136,1.5292,0,1.13543781497481,0.867748932295696,1.57819151269584,0.00558626006412297,-0.0660621850251897,1.6891089322957,0.0489915126958378,0.00558626006412297,-3.78508438735572,96.7788129583921,2.8070069094331,0.320069124936727,0.20808,0.31854,0.42168,0.208080031395118,0.318540123858287,0.421680135991375,3.13951178387839e-08,1.23858287126577e-07,1.35991374661248e-07,1.86601668524954e-07,1
-1.5213,-0.65549,0.62832,-0.32374,-1.52124392922253,-0.655487931927237,0.628274240613993,-0.327075532224775,5.60707774721614e-05,2.06807276270649e-06,-4.57593860070382e-05,-0.00333553222477456,0.00321261890317206,0.000118491841029042,-0.00262181969131329,-0.191111918909464,0.17262,-0.26449,0.52039,0.172620000000203,-0.264490000033059,0.520389999877535,2.02782235447785e-13,-3.30586669150534e-11,-1.22465149132722e-10,1.2684884442097e-10,1,1.2015,-0.82136,1.5697,0,1.13557353224222,0.869478146431297,1.61638621742365,0.00656561351596707,-0.0659264677577773,1.6908381464313,0.0466862174236526,0.00656561351596707,-3.77730836072594,96.8778896302364,2.67492321980542,0.376181944378962,0.20539,0.31114,0.41533,0.205389955520422,0.311139951524156,0.415329945757034,-4.44795780207841e-08,-4.84758440610911e-08,-5.42429656191779e-08,8.52680458173256e-08,1
-1.5213,-0.65549,0.62832,-0.32374,-1.52124392922253,-0.655487931927237,0.628274240613993,-0.327075532224775,5.60707774721614e-05,2.06807276270649e-06,-4.57593860070382e-05,-0.00333553222477456,0.00321261890317206,0.000118491841029042,-0.00262181969131329,-0.191111918909464,0.17262,-0.26449,0.52039,0.172620000000203,-0.264490000033059,0.520389999877535,2.02782235447785e-13,-3.30586669150534e-11,-1.22465149132722e-10,1.2684884442097e-10,1,1.2015,-0.82136,1.5616,0,1.13553959464004,0.869135370315152,1.60875492116115,0.00421633368364689,-0.0659604053599636,1.69049537031515,0.0471549211611533,0.00421633368364689,-3.77925284209801,96.8582500054634,2.70177796580622,0.241578125091814,0.2059,0.31262,0.41661,0.205900036603652,0.312620143863269,0.416609913099247,3.66036520815793e-08,1.4386326863125e-07,-8.69007524828547e-08,1.72012232672746e-07,1
-1.5213,-0.65549,0.62832,-0.32374,-1.52124392922253,-0.655487931927237,0.628274240613993,-0.327075532224775,5.60707774721614e-05,2.06807276270649e-06,-4.57593860070382e-05,-0.00333553222477456,0.00321261890317206,0.000118491841029042,-0.00262181969131329,-0.191111918909464,0.17262,-0.26449,0.52039,0.172620000000203,-0.264490000033059,0.520389999877535,2.02782235447785e-13,-3.30586669150534e-11,-1.22465149132722e-10,1.2684884442097e-10,1,1.2015,-0.82136,1.6749,0,1.13549245523337,0.87454763392606,1.71598139211563,0.00420781405289534,-0.0660075447666257,1.69590763392606,0.0410813921156252,0.00420781405289534,-3.7819537311485,97.1683498679806,2.35379038474734,0.241089986206741,0.2002,0.29192,0.39817,0.200199941365752,0.291920044157326,0.398170035208555,-5.86342482067348e-08,4.41573261844574e-08,3.52085550159309e-08,8.14093782364132e-08,1
-1.5213,-0.65549,0.62832,-0.32374,-1.52124392922253,-0.655487931927237,0.628274240613993,-0.327075532224775,5.60707774721614e-05,2.06807276270649e-06,-4.57593860070382e-05,-0.00333553222477456,0.00321261890317206,0.000118491841029042,-0.00262181969131329,-0.191111918909464,0.17262,-0.26449,0.52039,0.172620000000203,-0.264490000033059,0.520389999877535,2.02782235447785e-13,-3.30586669150534e-11,-1.22465149132722e-10,1.2684884442097e-10,1,1.2015,-0.73653,1.6749,0,1.13969906979261,0.7822605038886,1.71647813791391,0.0062801739471543,-0.0618009302073859,1.5187905038886,0.0415781379139131,0.0062801739471543,-3.54093247086577,87.0202858373644,2.38225182248009,0.359827461779957,0.20495,0.27583,0.41044,0.204949917602003,0.275829916346793,0.4104399368949,-8.23979974529099e-08,-8.36532072501228e-08,-6.31051002009109e-08,1.33302448360294e-07,1
-1.5213,-0.65549,0.62832,-0.32374,-1.52124392922253,-0.655487931927237,0.628274240613993,-0.327075532224775,5.60707774721614e-05,2.06807276270649e-06,-4.57593860070382e-05,-0.00333553222477456,0.00321261890317206,0.000118491841029042,-0.00262181969131329,-0.191111918909464,0.17262,-0.26449,0.52039,0.172620000000203,-0.264490000033059,0.520389999877535,2.02782235447785e-13,-3.30586669150534e-11,-1.22465149132722e-10,1.2684884442097e-10,1,1.2015,-0.55852,1.6749,0,1.14583988432141,0.591034586183886,1.71717135297934,0.00066695754398299,-0.0556601156785923,1.14955458618389,0.0422713529793408,0.00066695754398299,-3.18908971559328,65.8646261082445,2.42197012002399,0.0382138523846363,0.21323,0.23878,0.43183,0.213229976212231,0.23878006111391,0.431830088401847,-2.37877687270238e-08,6.11139104322866e-08,8.84018471203341e-08,1.10071134107098e-07,1
-1.5213,-0.65549,0.62832,-0.32374,-1.52124392922253,-0.655487931927237,0.628274240613993,-0.327075532224775,5.60707774721614e-05,2.06807276270649e-06,-4.57593860070382e-05,-0.00333553222477456,0.00321261890317206,0.000118491841029042,-0.00262181969131329,-0.191111918909464,0.17262,-0.26449,0.52039,0.172620000000203,-0.264490000033059,0.520389999877535,2.02782235447785e-13,-3.30586669150534e-11,-1.22465149132722e-10,1.2684884442097e-10,1,1.2015,-0.25913,1.6749,0,1.15080760310202,0.273463138638196,1.71769542428045,0.00658035690551847,-0.0506923968979847,0.532593138638196,0.0427954242804547,0.00658035690551847,-2.90446039565659,30.5153390415945,2.45199719374174,0.377026678375975,0.22142,0.16929,0.453,0.221419891402139,0.169289954601799,0.452999990893494,-1.08597860593029e-07,-4.53982009207543e-08,-9.10650554963865e-09,1.18056852471806e-07,1
-1.5213,-0.65549,0.62832,-0.32374,-1.52124392922253,-0.655487931927237,0.628274240613993,-0.327075532224775,5.60707774721614e-05,2.06807276270649e-06,-4.57593860070382e-05,-0.00333553222477456,0.00321261890317206,0.000118491841029042,-0.00262181969131329,-0.191111918909464,0.17262,-0.26449,0.52039,0.172620000000203,-0.264490000033059,0.520389999877535,2.02782235447785e-13,-3.30586669150534e-11,-1.22465149132722e-10,1.2684884442097e-10,1,1.2015,-0.34005,1.6749,0,1.14996375633233,0.359024602421647,1.71761369442291,0.00206740044349229,-0.0515362436676736,0.699074602421647,0.0427136944229072,0.00206740044349229,-2.95280925411551,40.0540242835464,2.44731441784406,0.118453319975583,0.21996,0.1887,0.44921,0.219960087968527,0.188700038817735,0.449209973716041,8.79685269905561e-08,3.88177349985863e-08,-2.62839586762098e-08,9.9680112234093e-08,1
-1.5213,-0.65549,0.62832,-0.32374,-1.52124392922253,-0.655487931927237,0.628274240613993,-0.327075532224775,5.60707774721614e-05,2.06807276270649e-06,-4.57593860070382e-05,-0.00333553222477456,0.00321261890317206,0.000118491841029042,-0.00262181969131329,-0.191111918909464,0.17262,-0.26449,0.52039,0.172620000000203,-0.264490000033059,0.520389999877535,2.02782235447785e-13,-3.30586669150534e-11,-1.22465149132722e-10,1.2684884442097e-10,1,1.2015,-0.80935,1.6749,0,1.13615531054597,0.861429652340925,1.71607027664872,0.00259353705592973,-0.0653446894540266,1.67077965234093,0.0411702766487174,0.00259353705592973,-3.74397491930874,95.72862257547,2.35888309335752,0.148598727315559,0.2009,0.28971,0.39998,0.200899994190498,0.289709913740469,0.399980057074536,-5.8095019905835e-09,-8.62595311290626e-08,5.70745361527791e-08,1.03595172189824e-07,1
-1.5213,-0.65549,0.62832,-0.32374,-1.52124392922253,-0.655487931927237,0.628274240613993,-0.327075532224775,5.60707774721614e-05,2.06807276270649e-06,-4.57593860070382e-05,-0.00333553222477456,0.00321261890317206,0.000118491841029042,-0.00262181969131329,-0.191111918909464,0.17262,-0.26449,0.52039,0.172620000000203,-0.264490000033059,0.520389999877535,2.02782235447785e-13,-3.30586669150534e-11,-1.22465149132722e-10,1.2684884442097e-10,1,1.2015,-0.955,1.6749,0,1.1263103183753,1.02245752590245,1.71496529618057,0.00469700128202489,-0.0751896816246969,1.97745752590245,0.0400652961805683,0.00469700128202489,-4.30805142002749,113.299970400592,2.29557237608818,0.269118349827563,0.19177,0.31484,0.37638,0.191769906937947,0.314839966659542,0.376379985541206,-9.30620532024751e-08,-3.33404585051156e-08,-1.44587935513307e-08,9.9905898877652e-08,1
-1.5213,-0.65549,0.62832,-0.32374,-1.52124392922253,-0.655487931927237,0.628274240613993,-0.327075532224775,5.60707774721614e-05,2.06807276270649e-06,-4.57593860070382e-05,-0.00333553222477456,0.00321261890317206,0.000118491841029042,-0.00262181969131329,-0.191111918909464,0.17262,-0.26449,0.52039,0.172620000000203,-0.264490000033059,0.520389999877535,2.02782235447785e-13,-3.30586669150534e-11,-1.22465149132722e-10,1.2684884442097e-10,1,1.2015,-1.0602,1.6749,0,0.105845709640376,2.36868340684719,1.58745255314734,0.0133768105942536,-1.09565429035962,3.42888340684719,-0.0874474468526574,0.0133768105942536,-62.7763666430077,196.460547654783,-5.01036963385184,0.766434790396618,0.1844,0.33056,0.35734,0.184400007972518,0.330560018889132,0.357340044504223,7.97251800688237e-09,1.88891317032258e-08,4.45042234731297e-08,4.89998596612086e-08,1
-1.5213,-0.65549,0.62832,-0.32374,-1.52124392922253,-0.655487931927237,0.628274240613993,-0.327075532224775,5.60707774721614e-05,2.06807276270649e-06,-4.57593860070382e-05,-0.00333553222477456,0.00321261890317206,0.000118491841029042,-0.00262181969131329,-0.191111918909464,0.17262,-0.26449,0.52039,0.172620000000203,-0.264490000033059,0.520389999877535,2.02782235447785e-13,-3.30586669150534e-11,-1.22465149132722e-10,1.2684884442097e-10,1,1.2015,-1.0845,1.6749,0,1.11274083049264,1.17057055970146,1.71345607597949,0.0114358720864314,-0.0887591695073591,2.25507055970146,0.0385560759794945,0.0114358720864314,-5.08552580585794,129.206025575098,2.20910042821077,0.655227205603987,0.18261,0.33388,0.35273,0.182609992352682,0.333879990947045,0.352730062318581,-7.64731775126926e-09,-9.05295471920198e-09,6.23185807957505e-08,6.34353448034554e-08,1
-1.5213,-0.65549,0.62832,-0.32374,-1.52124392922253,-0.655487931927237,0.628274240613993,-0.327075532224775,5.60707774721614e-05,2.06807276270649e-06,-4.57593860070382e-05,-0.00333553222477456,0.00321261890317206,0.000118491841029042,-0.00262181969131329,-0.191111918909464,0.17262,-0.26449,0.52039,0.172620000000203,-0.264490000033059,0.520389999877535,2.02782235447785e-13,-3.30586669150534e-11,-1.22465149132722e-10,1.2684884442097e-10,1,1.2015,-1.133,1.6749,0,0.202245158293791,2.29406145041079,1.60173403713828,0.0127942148438474,-0.999254841706209,3.42706145041079,-0.0731659628617227,0.0127942148438474,-57.2530850877789,196.356157240521,-4.19210087598764,0.733054512736085,0.17897,0.34015,0.34331,0.178970036721338,0.340150011781229,0.343309962720548,3.67213383034581e-08,1.17812286593022e-08,-3.7279452469452e-08,5.36377815717794e-08,1
-1.5213,-0.65549,0.62832,-0.32374,-1.52124392922253,-0.655487931927237,0.628274240613993,-0.327075532224775,5.60707774721614e-05,2.06807276270649e-06,-4.57593860070382e-05,-0.00333553222477456,0.00321261890317206,0.000118491841029042,-0.00262181969131329,-0.191111918909464,0.17262,-0.26449,0.52039,0.172620000000203,-0.264490000033059,0.520389999877535,2.02782235447785e-13,-3.30586669150534e-11,-1.22465149132722e-10,1.2684884442097e-10,1,1.2015,-1.2382,1.6749,0,1.08392113193549,1.35972014072105,1.71022148928257,0.014739442572564,-0.117578868064515,2.59792014072105,0.0353214892825735,0.014739442572564,-6.73677290002223,148.849859575349,2.02377226200803,0.844507851783368,0.17071,0.35202,0.32197,0.170710027990773,0.352020025233419,0.321969969928873,2.79907728939488e-08,2.52334189099201e-08,-3.00711265888154e-08,4.82128764066685e-08,1
-1.5213,-0.65549,0.62832,-0.32374,-1.52124392922253,-0.655487931927237,0.628274240613993,-0.327075532224775,5.60707774721614e-05,2.06807276270649e-06,-4.57593860070382e-05,-0.00333553222477456,0.00321261890317206,0.000118491841029042,-0.00262181969131329,-0.191111918909464,0.17262,-0.26449,0.52039,0.172620000000203,-0.264490000033059,0.520389999877535,2.02782235447785e-13,-3.30586669150534e-11,-1.22465149132722e-10,1.2684884442097e-10,1,1.2015,-1.4405,1.6749,0,0.884611406464162,1.77991095383247,1.68639383861957,0.00628463595569553,-0.316888593535838,3.22041095383247,0.0114938386195726,0.00628463595569553,-18.1563789854401,184.5159559523,0.658548443305985,0.360083116037521,0.15378,0.3678,0.27822,0.153462425223053,0.367751914150162,0.278487200141451,-0.000317574776947133,-4.80858498385084e-05,0.000267200141451152,0.0004178060596727,0
-1.5213,-0.65549,0.62832,-0.32374,-1.52124392922253,-0.655487931927237,0.628274240613993,-0.327075532224775,5.60707774721614e-05,2.06807276270649e-06,-4.57593860070382e-05,-0.00333553222477456,0.00321261890317206,0.000118491841029042,-0.00262181969131329,-0.191111918909464,0.17262,-0.26449,0.52039,0.172620000000203,-0.264490000033059,0.520389999877535,2.02782235447785e-13,-3.30586669150534e-11,-1.22465149132722e-10,1.2684884442097e-10,1,1.2015,-1.6104,1.6749,0,1.03750647751716,-4.50508730502317,1.66839545632078,-0.00540683658334945,-0.163993522482843,-2.89468730502317,-0.00650454367922348,-0.00540683658334945,-9.39613670575071,-165.853365587926,-0.372682900478002,-0.309788916742857,0.1389,0.37354,0.2398,0.12928647020726,0.372442097664914,0.245621577592825,-0.00961352979274033,-0.00109790233508644,0.00582157759282484,0.0112923031434059,0
-1.5213,-0.65549,0.62832,-0.32374,-1.52124392922253,-0.655487931927237,0.628274240613993,-0.327075532224775,5.60707774721614e-05,2.06807276270649e-06,-4.57593860070382e-05,-0.00333553222477456,0.00321261890317206,0.000118491841029042,-0.00262181969131329,-0.191111918909464,0.17262,-0.26449,0.52039,0.172620000000203,-0.264490000033059,0.520389999877535,2.02782235447785e-13,-3.30586669150534e-11,-1.22465149132722e-10,1.2684884442097e-10,1,1.2015,-1.6185,1.6749,0,1.04520990721122,-4.50511343882115,1.66813126514399,-0.00583428858635173,-0.156290092788777,-2.88661343882115,-0.00676873485600749,-0.00583428858635173,-8.95476269650497,-165.390767130197,-0.38781993989232,-0.334280112459302,0.13819,0.37364,0.23795,0.128230826969968,0.372511014814251,0.24387606514183,-0.00995917303003205,-0.00112898518574867,0.00592606514182967,0.0116437959041271,0
-1.5213,-0.65549,0.62832,-0.32374,-1.52124392922253,-0.655487931927237,0.628274240613993,-0.327075532224775,5.60707774721614e-05,2.06807276270649e-06,-4.57593860070382e-05,-0.00333553222477456,0.00321261890317206,0.000118491841029042,-0.00262181969131329,-0.191111918909464,0.17262,-0.26449,0.52039,0.172620000000203,-0.264490000033059,0.520389999877535,2.02782235447785e-13,-3.30586669150534e-11,-1.22465149132722e-10,1.2684884442097e-10,1,1.2015,-1.6104,1.6749,0,1.03750647751716,-4.50508730502317,1.66839545632078,-0.00540683658334945,-0.163993522482843,-2.89468730502317,-0.00650454367922348,-0.00540683658334945,-9.39613670575071,-165.853365587926,-0.372682900478002,-0.309788916742857,0.1389,0.37354,0.2398,0.12928647020726,0.372442097664914,0.245621577592825,-0.00961352979274033,-0.00109790233508644,0.00582157759282484,0.0112923031434059,0
-1.5213,-0.65549,0.62832,-0.32374,-1.52124392922253,-0.655487931927237,0.628274240613993,-0.327075532224775,5.60707774721614e-05,2.06807276270649e-06,-4.57593860070382e-05,-0.00333553222477456,0.00321261890317206,0.000118491841029042,-0.00262181969131329,-0.191111918909464,0.17262,-0.26449,0.52039,0.172620000000203,-0.264490000033059,0.520389999877535,2.02782235447785e-13,-3.30586669150534e-11,-1.22465149132722e-10,1.2684884442097e-10,1,1.2015,-0.28341,1.6749,0,1.15059779783713,0.299125606781306,1.71765701111592,0.00435413459302153,-0.0509022021628744,0.582535606781306,0.0427570111159183,0.00435413459302153,-2.9164813518544,33.3768316846613,2.44979628153607,0.249473535612046,0.22104,0.17515,0.45202,0.221040068858936,0.175149944549296,0.452020029387473,6.8858935720062e-08,-5.54507041394814e-08,2.93874732326671e-08,9.31662878999944e-08,1
-1.5213,-0.65549,0.62832,-0.32374,-1.52124392922253,-0.655487931927237,0.628274240613993,-0.327075532224775,5.60707774721614e-05,2.06807276270649e-06,-4.57593860070382e-05,-0.00333553222477456,0.00321261890317206,0.000118491841029042,-0.00262181969131329,-0.191111918909464,0.17262,-0.26449,0.52039,0.172620000000203,-0.264490000033059,0.520389999877535,2.02782235447785e-13,-3.30586669150534e-11,-1.22465149132722e-10,1.2684884442097e-10,1,1.2015,1.4158,1.6749,0,1.02963228404054,-1.59185761442825,1.66869439621989,0.00121645680981327,-0.171867715959457,-3.00765761442825,-0.00620560378010815,0.00121645680981327,-9.84729475903011,-172.326087527124,-0.355554905930627,0.0696978411622485,0.13964,-0.11583,0.24169,0.130380578814323,-0.114764133303476,0.24739770945383,-0.00925942118567663,0.00106586669652387,0.0057077094538299,0.0109293595291698,0
-1.5213,-0.65549,0.62832,-0.32374,-1.52124392922253,-0.655487931927237,0.628274240613993,-0.327075532224775,5.60707774721614e-05,2.06807276270649e-06,-4.57593860070382e-05,-0.00333553222477456,0.00321261890317206,0.000118491841029042,-0.00262181969131329,-0.191111918909464,0.17262,-0.26449,0.52039,0.172620000000203,-0.264490000033059,0.520389999877535,2.02782235447785e-13,-3.30586669150534e-11,-1.22465149132722e-10,1.2684884442097e-10,1,1.2015,1.6828,1.6749,0,1.29148160406444,-1.58977909763614,1.6888338047712,0.00232554865578928,0.0899816040644421,-3.27257909763614,0.0139338047712021,0.00232554865578928,5.15556614670975,-187.504970417282,0.79834820594913,0.133244123029047,0.11614,-0.11115,0.181,0.102927312710275,-0.109516850334205,0.184984350792748,-0.0132126872897245,0.00163314966579547,0.00398435079274789,0.0138966663083851,0
-1.5213,-0.65549,0.62832,-0.32374,-1.52124392922253,-0.655487931927237,0.628274240613993,-0.327075532224775,5.60707774721614e-05,2.06807276270649e-06,-4.57593860070382e-05,-0.00333553222477456,0.00321261890317206,0.000118491841029042,-0.00262181969131329,-0.191111918909464,0.17262,-0.26449,0.52039,0.172620000000203,-0.264490000033059,0.520389999877535,2.02782235447785e-13,-3.30586669150534e-11,-1.22465149132722e-10,1.2684884442097e-10,1,1.2015,1.9498,1.6749,0,1.4443626587259,4.59221239337315,1.7505781476298,-0.00922258117298811,0.242862658725899,2.64241239337315,0.075678147629799,-0.00922258117298811,13.91500534632,151.399077873344,4.33603846055546,-0.528414977429031,0.093929,-0.089475,0.1236,0.0939290014042562,-0.0894750039166485,0.123600020225569,1.40425615580142e-09,-3.91664854715312e-09,2.02255688724895e-08,2.06491091190114e-08,1
-1.5213,-0.65549,0.62832,-0.32374,-1.52124392922253,-0.655487931927237,0.628274240613993,-0.327075532224775,5.60707774721614e-05,2.06807276270649e-06,-4.57593860070382e-05,-0.00333553222477456,0.00321261890317206,0.000118491841029042,-0.00262181969131329,-0.191111918909464,0.17262,-0.26449,0.52039,0.172620000000203,-0.264490000033059,0.520389999877535,2.02782235447785e-13,-3.30586669150534e-11,-1.22465149132722e-10,1.2684884442097e-10,1,1.2015,1.9822,1.6749,0,1.39825255706888,4.50611228114063,1.74537627324528,-0.00209943866722087,0.196752557068876,2.52391228114063,0.0704762732452815,-0.00209943866722087,11.2730911284535,144.609521570594,4.03799301276539,-0.120288974978326,0.091401,-0.085753,0.11707,0.0914009970455608,-0.0857530161078076,0.117069985156407,-2.95443915165894e-09,-1.61078076155174e-08,-1.48435933544633e-08,2.21025437574964e-08,1
-1.5213,-0.65549,0.62832,-0.32374,-1.52124392922253,-0.655487931927237,0.628274240613993,-0.327075532224775,5.60707774721614e-05,2.06807276270649e-06,-4.57593860070382e-05,-0.00333553222477456,0.00321261890317206,0.000118491841029042,-0.00262181969131329,-0.191111918909464,0.17262,-0.26449,0.52039,0.172620000000203,-0.264490000033059,0.520389999877535,2.02782235447785e-13,-3.30586669150534e-11,-1.22465149132722e-10,1.2684884442097e-10,1,1.2015,1.7556,1.6749,0,1.36214438370266,-1.58806499978942,1.70482102228074,0.000413728268902212,0.160644383702663,-3.34366499978942,0.0299210222807396,0.000413728268902212,9.20424518864275,-191.577892593545,1.71434829540328,0.0237048836733504,0.10989,-0.10689,0.16484,0.0988119668832867,-0.105361005141008,0.167364820635244,-0.0110780331167133,0.00152899485899162,0.00252482063524445,0.0114645262551043,0
-1.5213,-0.65549,0.62832,-0.32374,-1.52124392922253,-0.655487931927237,0.628274240613993,-0.327075532224775,5.60707774721614e-05,2.06807276270649e-06,-4.57593860070382e-05,-0.00333553222477456,0.00321261890317206,0.000118491841029042,-0.00262181969131329,-0.191111918909464,0.17262,-0.26449,0.52039,0.172620000000203,-0.264490000033059,0.520389999877535,2.02782235447785e-13,-3.30586669150534e-11,-1.22465149132722e-10,1.2684884442097e-10,1,1.2015,1.3672,1.6749,0,0.984299210538537,-1.591543348429,1.67180220662287,0.00554070247825151,-0.217200789461463,-2.958743348429,-0.00309779337712635,0.00554070247825151,-12.4446885430514,-169.523506527387,-0.177490486312918,0.317458867541487,0.14392,-0.1148,0.25275,0.137002966063876,-0.11395357690398,0.257462851229441,-0.00691703393612364,0.000846423096020246,0.00471285122944065,0.00841265458947429,0
-1.5213,-0.65549,0.62832,-0.32374,-1.52124392922253,-0.655487931927237,0.628274240613993,-0.327075532224775,5.60707774721614e-05,2.06807276270649e-06,-4.57593860070382e-05,-0.00333553222477456,0.00321261890317206,0.000118491841029042,-0.00262181969131329,-0.191111918909464,0.17262,-0.26449,0.52039,0.172620000000203,-0.264490000033059,0.520389999877535,2.02782235447785e-13,-3.30586669150534e-11,-1.22465149132722e-10,1.2684884442097e-10,1,1.2015,1.0517,1.6749,0,0.363986873905346,-1.99985818735102,1.62412898968182,0.00136945779815062,-0.837513126094654,-3.05155818735102,-0.0507710103181813,0.00136945779815062,-47.9859674120316,-174.841405073805,-2.90896461284694,0.078464152055309,0.17072,-0.094395,0.32201,0.170719996655763,-0.0943950448724501,0.322009994180017,-3.34423708170384e-09,-4.48724500751174e-08,-5.81998260695826e-09,4.53717191094612e-08,1
-1.5213,-0.65549,0.62832,-0.32374,-1.52124392922253,-0.655487931927237,0.628274240613993,-0.327075532224775,5.60707774721614e-05,2.06807276270649e-06,-4.57593860070382e-05,-0.00333553222477456,0.00321261890317206,0.000118491841029042,-0.00262181969131329,-0.191111918909464,0.17262,-0.26449,0.52039,0.172620000000203,-0.264490000033059,0.520389999877535,2.02782235447785e-13,-3.30586669150534e-11,-1.22465149132722e-10,1.2684884442097e-10,1,1.2015,0.96268,1.6749,0,0.225046693298663,-2.10280054241204,1.60499371827467,0.00537534221510082,-0.976453306701337,-3.06548054241204,-0.0699062817253255,0.00537534221510082,-55.9466533655799,-175.639097259684,-4.00533490431367,0.30798442236378,0.17774,-0.08451,0.34014,0.177739939580705,-0.0845100096717988,0.34013995841541,-6.0419295011549e-08,-9.67179880628777e-09,-4.15845895496147e-08,7.39818422983087e-08,1
-1.5213,-0.65549,0.62832,-0.32374,-1.52124392922253,-0.655487931927237,0.628274240613993,-0.327075532224775,5.60707774721614e-05,2.06807276270649e-06,-4.57593860070382e-05,-0.00333553222477456,0.00321261890317206,0.000118491841029042,-0.00262181969131329,-0.191111918909464,0.17262,-0.26449,0.52039,0.172620000000203,-0.264490000033059,0.520389999877535,2.02782235447785e-13,-3.30586669150534e-11,-1.22465149132722e-10,1.2684884442097e-10,1,1.2015,0.85749,1.6749,0,1.11769086059885,-0.927579645054878,1.71400905669164,0.0120165763239903,-0.0838091394011482,-1.78506964505488,0.0391090566916446,0.0120165763239903,-4.80190997230937,-102.27695679856,2.2407838891691,0.688499107561476,0.18558,-0.070657,0.3604,0.185579958474208,-0.0706570053074906,0.360399976171178,-4.15257914998524e-08,-5.30749061367075e-09,-2.38288220821836e-08,4.81702561559286e-08,1
-1.5213,-0.65549,0.62832,-0.32374,-1.52124392922253,-0.655487931927237,0.628274240613993,-0.327075532224775,5.60707774721614e-05,2.06807276270649e-06,-4.57593860070382e-05,-0.00333553222477456,0.00321261890317206,0.000118491841029042,-0.00262181969131329,-0.191111918909464,0.17262,-0.26449,0.52039,0.172620000000203,-0.264490000033059,0.520389999877535,2.02782235447785e-13,-3.30586669150534e-11,-1.22465149132722e-10,1.2684884442097e-10,1,1.2015,0.80085,1.6749,0,1.12346995956931,-0.862791797992195,1.71466167545923,0.0093374086755844,-0.0780300404306937,-1.66364179799219,0.0397616754592296,0.0093374086755844,-4.47079199191393,-95.3196536465086,2.27817619018276,0.534994108699826,0.18958,-0.062274,0.37072,0.189580022083515,-0.0622740097883606,0.370720072056067,2.20835149611354e-08,-9.78836061510391e-09,7.20560669464909e-08,7.59971737656552e-08,1
-1.5213,-0.65549,0.62832,-0.32374,-1.52124392922253,-0.655487931927237,0.628274240613993,-0.327075532224775,5.60707774721614e-05,2.06807276270649e-06,-4.57593860070382e-05,-0.00333553222477456,0.00321261890317206,0.000118491841029042,-0.00262181969131329,-0.191111918909464,0.17262,-0.26449,0.52039,0.172620000000203,-0.264490000033059,0.520389999877535,2.02782235447785e-13,-3.30586669150534e-11,-1.22465149132722e-10,1.2684884442097e-10,1,1.2015,0.72802,1.6749,0,1.12951354145624,-0.780978593229533,1.71531868213468,0.00780618521332499,-0.0719864585437608,-1.50899859322953,0.0404186821346815,0.00780618521332499,-4.12452025665096,-86.4592506832307,2.31581989979807,0.447261466820952,0.19445,-0.050599,0.38331,0.194450020478556,-0.0505989515924028,0.383310006642647,2.04785557400555e-08,4.84075971599052e-08,6.64264665495296e-09,5.29791606443211e-08,1
-1.5213,-0.65549,0.62832,-0.32374,-1.52124392922253,-0.655487931927237,0.628274240613993,-0.327075532224775,5.60707774721614e-05,2.06807276270649e-06,-4.57593860070382e-05,-0.00333553222477456,0.00321261890317206,0.000118491841029042,-0.00262181969131329,-0.191111918909464,0.17262,-0.26449,0.52039,0.172620000000203,-0.264490000033059,0.520389999877535,2.02782235447785e-13,-3.30586669150534e-11,-1.22465149132722e-10,1.2684884442097e-10,1,1.2015,0.52574,1.6749,0,1.14072558234906,-0.559469502038265,1.71659764331607,-0.00559513848752873,-0.0607744176509366,-1.08520950203826,0.0416976433160732,-0.00559513848752873,-3.48211763376404,-62.1779243542863,2.38909897765288,-0.320577821126607,0.20623,-0.013389,0.41374,0.206230040157402,-0.0133890550640787,0.413739945489567,4.01574022368401e-08,-5.50640786977502e-08,-5.45104327231982e-08,8.72700234497145e-08,1
-1.5213,-0.65549,0.62832,-0.32374,-1.52124392922253,-0.655487931927237,0.628274240613993,-0.327075532224775,5.60707774721614e-05,2.06807276270649e-06,-4.57593860070382e-05,-0.00333553222477456,0.00321261890317206,0.000118491841029042,-0.00262181969131329,-0.191111918909464,0.17262,-0.26449,0.52039,0.172620000000203,-0.264490000033059,0.520389999877535,2.02782235447785e-13,-3.30586669150534e-11,-1.22465149132722e-10,1.2684884442097e-10,1,1.2015,0.29109,1.6749,0,1.14772803007406,-0.308146290025963,1.7173794663903,0.00784916216962626,-0.053771969925944,-0.599236290025963,0.0424794663902959,0.00784916216962626,-3.08090693286098,-34.333710349565,2.43389414013178,0.449723865033333,0.21619,0.036924,0.43947,0.216190099025411,0.0369240135272628,0.439469916539485,9.90254108157451e-08,1.35272628029592e-08,-8.34605148880563e-08,1.30210123921095e-07,1
-1.5213,-0.65549,0.62832,-0.32374,-1.52124392922253,-0.655487931927237,0.628274240613993,-0.327075532224775,5.60707774721614e-05,2.06807276270649e-06,-4.57593860070382e-05,-0.00333553222477456,0.00321261890317206,0.000118491841029042,-0.00262181969131329,-0.191111918909464,0.17262,-0.26449,0.52039,0.172620000000203,-0.264490000033059,0.520389999877535,2.02782235447785e-13,-3.30586669150534e-11,-1.22465149132722e-10,1.2684884442097e-10,1,1.2015,0.26681,1.6749,0,1.14821359499678,-0.282340634783149,1.71741897410811,0.00471165859678069,-0.0532864050032156,-0.549150634783149,0.0425189741081056,0.00471165859678069,-3.05308611210905,-31.4640136900045,2.43615776562047,0.269958152102065,0.21697,0.042466,0.44149,0.216970062837412,0.0424659923472419,0.441490115749305,6.2837411940464e-08,-7.65275808695121e-09,1.157493046966e-07,1.31928035623438e-07,1
