junnyyummy/RobotArmSimulink/dual_arm_inverse_kinematics_result.csv
Arm1_Actual_J1_rad,Arm1_Actual_J2_rad,Arm1_Actual_J3_rad,Arm1_Actual_J4_rad,Arm1_Solved_J1_rad,Arm1_Solved_J2_rad,Arm1_Solved_J3_rad,Arm1_Solved_J4_rad,Arm1_JointErr_J1_rad,Arm1_JointErr_J2_rad,Arm1_JointErr_J3_rad,Arm1_JointErr_J4_rad,Arm1_JointErr_J1_deg,Arm1_JointErr_J2_deg,Arm1_JointErr_J3_deg,Arm1_JointErr_J4_deg,Arm1_Target_X_m,Arm1_Target_Y_m,Arm1_Target_Z_m,Arm1_Calc_X_m,Arm1_Calc_Y_m,Arm1_Calc_Z_m,Arm1_PosErr_X_m,Arm1_PosErr_Y_m,Arm1_PosErr_Z_m,Arm1_Total_Pos_Error_m,Arm1_Converged,Arm2_Actual_J1_rad,Arm2_Actual_J2_rad,Arm2_Actual_J3_rad,Arm2_Actual_J4_rad,Arm2_Solved_J1_rad,Arm2_Solved_J2_rad,Arm2_Solved_J3_rad,Arm2_Solved_J4_rad,Arm2_JointErr_J1_rad,Arm2_JointErr_J2_rad,Arm2_JointErr_J3_rad,Arm2_JointErr_J4_rad,Arm2_JointErr_J1_deg,Arm2_JointErr_J2_deg,Arm2_JointErr_J3_deg,Arm2_JointErr_J4_deg,Arm2_Target_X_m,Arm2_Target_Y_m,Arm2_Target_Z_m,Arm2_Calc_X_m,Arm2_Calc_Y_m,Arm2_Calc_Z_m,Arm2_PosErr_X_m,Arm2_PosErr_Y_m,Arm2_PosErr_Z_m,Arm2_Total_Pos_Error_m,Arm2_Converged
-8.1555e-05,0,0,0,-8.15846487766667e-05,-4.6596505460457e-09,1.97577972770166e-05,0.000106410715760993,-2.9648776666717e-08,-4.6596505460457e-09,1.97577972770166e-05,0.000106410715760993,-1.69874977072884e-06,-2.66978310294248e-07,0.00113203839644812,0.00609688490807111,0.556,0.0281,0.10904,0.555999998627017,0.0280999975769817,0.109040005533663,-1.37298350466608e-09,-2.42301826866576e-09,5.53366344413497e-09,6.19496023775204e-09,1,0,0,0,0,-0.216296219489663,6.61948357605125e-08,0.462462714646076,0.321809754914638,-0.216296219489663,6.61948357605125e-08,0.462462714646076,0.321809754914638,-12.392860501393,3.79268471463902e-06,26.4971617313831,18.4383407627481,0.9058,0.106,0.109,0.90579997604991,0.106000033571602,0.109000032346163,-2.39500896892508e-08,3.35716021648835e-08,3.23461630397093e-08,5.24111966227811e-08,1
-0.16191,0,0,0,-0.161919500696462,3.68975031137718e-07,6.033119948761e-06,0.000124455131617871,-9.50069646174501e-06,3.68975031137718e-07,6.033119948761e-06,0.000124455131617871,-0.000544349809692863,2.11407120298994e-05,0.000345672310360188,0.00713075378044917,0.54879,0.0281,0.19781,0.548794271929582,0.0281001918670146,0.197810694171075,4.27192958207812e-06,1.91867014647656e-07,6.94171074511196e-07,4.33221292023279e-06,1,0,0,0,0,-0.216296219489663,6.61948357605125e-08,0.462462714646076,0.321809754914638,-0.216296219489663,6.61948357605125e-08,0.462462714646076,0.321809754914638,-12.392860501393,3.79268471463902e-06,26.4971617313831,18.4383407627481,0.9058,0.106,0.109,0.90579997604991,0.106000033571602,0.109000032346163,-2.39500896892508e-08,3.35716021648835e-08,3.23461630397093e-08,5.24111966227811e-08,1
-0.80923,0,0,0,-0.809238466872967,-7.25422735323598e-08,5.64858542061237e-06,0.000117466782945901,-8.46687296662818e-06,-7.25422735323598e-08,5.64858542061237e-06,0.000117466782945901,-0.000485116086661205,-4.1563661096878e-06,0.000323640104820218,0.00673035089577944,0.38525,0.0281,0.50772,0.385249458921884,0.0280999622780177,0.507719451119875,-5.41078116145233e-07,-3.77219823051445e-08,-5.48880124684459e-07,7.71659165042398e-07,1,0,0,0,0,-0.216296219489663,6.61948357605125e-08,0.462462714646076,0.321809754914638,-0.216296219489663,6.61948357605125e-08,0.462462714646076,0.321809754914638,-12.392860501393,3.79268471463902e-06,26.4971617313831,18.4383407627481,0.9058,0.106,0.109,0.90579997604991,0.106000033571602,0.109000032346163,-2.39500896892508e-08,3.35716021648835e-08,3.23461630397093e-08,5.24111966227811e-08,1
-0.81732,0,0,0,-0.817327219863775,1.7819430720007e-07,3.66338203255587e-06,0.000118209719385523,-7.21986377483219e-06,1.7819430720007e-07,3.66338203255587e-06,0.000118209719385523,-0.000413667722957275,1.02097817358217e-05,0.000209896329209509,0.00677291801821624,0.38201,0.0281,0.51078,0.382011548939042,0.0281000926610394,0.510781644427576,1.54893904225073e-06,9.2661039369224e-08,1.64442757599748e-06,2.26096003448237e-06,1,0,0,0,0,-0.216296219489663,6.61948357605125e-08,0.462462714646076,0.321809754914638,-0.216296219489663,6.61948357605125e-08,0.462462714646076,0.321809754914638,-12.392860501393,3.79268471463902e-06,26.4971617313831,18.4383407627481,0.9058,0.106,0.109,0.90579997604991,0.106000033571602,0.109000032346163,-2.39500896892508e-08,3.35716021648835e-08,3.23461630397093e-08,5.24111966227811e-08,1
-0.81732,0,0,0,-0.817327219863775,1.7819430720007e-07,3.66338203255587e-06,0.000118209719385523,-7.21986377483219e-06,1.7819430720007e-07,3.66338203255587e-06,0.000118209719385523,-0.000413667722957275,1.02097817358217e-05,0.000209896329209509,0.00677291801821624,0.38201,0.0281,0.51078,0.382011548939042,0.0281000926610394,0.510781644427576,1.54893904225073e-06,9.2661039369224e-08,1.64442757599748e-06,2.26096003448237e-06,1,0,0,0,0,-0.216296219489663,6.61948357605125e-08,0.462462714646076,0.321809754914638,-0.216296219489663,6.61948357605125e-08,0.462462714646076,0.321809754914638,-12.392860501393,3.79268471463902e-06,26.4971617313831,18.4383407627481,0.9058,0.106,0.109,0.90579997604991,0.106000033571602,0.109000032346163,-2.39500896892508e-08,3.35716021648835e-08,3.23461630397093e-08,5.24111966227811e-08,1
-0.04863,0,0,0,-0.0486318404267098,-1.09337523090683e-07,3.13750368364525e-06,0.000116182207590393,-1.8404267097677e-06,-1.09337523090683e-07,3.13750368364525e-06,0.000116182207590393,-0.000105448682972837,-6.26457861551034e-06,0.000179765719279622,0.0066567501494423,0.55535,0.0281,0.13578,0.555348714354532,0.0280999431444879,0.135779938332875,-1.28564546764132e-06,-5.68555121246983e-08,-6.16671252950951e-08,1.28837869125028e-06,1,0,0,0,0,-0.216296219489663,6.61948357605125e-08,0.462462714646076,0.321809754914638,-0.216296219489663,6.61948357605125e-08,0.462462714646076,0.321809754914638,-12.392860501393,3.79268471463902e-06,26.4971617313831,18.4383407627481,0.9058,0.106,0.109,0.90579997604991,0.106000033571602,0.109000032346163,-2.39500896892508e-08,3.35716021648835e-08,3.23461630397093e-08,5.24111966227811e-08,1
-0.040538,0,0,0,-0.0405470299895684,-2.34758597621309e-07,5.39915639190605e-06,0.000127751923561136,-9.02998956844175e-06,-2.34758597621309e-07,5.39915639190605e-06,0.000127751923561136,-0.000517380291318872,-1.34506768481109e-05,0.000309348874187298,0.00731964604473097,0.55555,0.0281,0.13133,0.555547265320684,0.0280998779255286,0.13132989019571,-2.73467931644067e-06,-1.22074471375216e-07,-1.09804290299165e-07,2.73960400833734e-06,1,0,0,0,0,-0.216296219489663,6.61948357605125e-08,0.462462714646076,0.321809754914638,-0.216296219489663,6.61948357605125e-08,0.462462714646076,0.321809754914638,-12.392860501393,3.79268471463902e-06,26.4971617313831,18.4383407627481,0.9058,0.106,0.109,0.90579997604991,0.106000033571602,0.109000032346163,-2.39500896892508e-08,3.35716021648835e-08,3.23461630397093e-08,5.24111966227811e-08,1
-0.024356,0,0,0,-0.0243651399781605,-2.656935793058e-07,6.16370955989941e-06,0.000114408852440929,-9.13997816051962e-06,-2.656935793058e-07,6.16370955989941e-06,0.000114408852440929,-0.00052368217343952,-1.52231207379468e-05,0.000353154543926674,0.00655514438380024,0.55584,0.0281,0.12242,0.555836528022362,0.028099861839338,0.122419887238553,-3.4719776383918e-06,-1.38160662029041e-07,-1.12761446707799e-07,3.47655464992119e-06,1,0,0,0,0,-0.216296219489663,6.61948357605125e-08,0.462462714646076,0.321809754914638,-0.216296219489663,6.61948357605125e-08,0.462462714646076,0.321809754914638,-12.392860501393,3.79268471463902e-06,26.4971617313831,18.4383407627481,0.9058,0.106,0.109,0.90579997604991,0.106000033571602,0.109000032346163,-2.39500896892508e-08,3.35716021648835e-08,3.23461630397093e-08,5.24111966227811e-08,1
-0.024356,-0.016264,0,0,-0.0243554111641239,-0.0162642056486847,1.38973569874847e-05,0.00011165678654739,5.88835876089849e-07,-2.05648684706294e-07,1.38973569874847e-05,0.00011165678654739,3.37378105258367e-05,-1.17828016960872e-05,0.000796259901769519,0.00639746262315854,0.55614,0.01964,0.12242,0.556138642704737,0.0196399704108059,0.122419951641959,-1.3572952631824e-06,-2.95891941504145e-08,-4.83580413490614e-08,1.35847872711757e-06,1,0,0,0,0,-0.216296219489663,6.61948357605125e-08,0.462462714646076,0.321809754914638,-0.216296219489663,6.61948357605125e-08,0.462462714646076,0.321809754914638,-12.392860501393,3.79268471463902e-06,26.4971617313831,18.4383407627481,0.9058,0.106,0.109,0.90579997604991,0.106000033571602,0.109000032346163,-2.39500896892508e-08,3.35716021648835e-08,3.23461630397093e-08,5.24111966227811e-08,1
-0.024356,-0.13764,0,0,-0.0243563841570949,-0.137634502065567,1.23207462835631e-05,9.94375108893738e-05,-3.84157094888288e-07,5.49793443327395e-06,1.23207462835631e-05,9.94375108893738e-05,-2.20105802071056e-05,0.000315008439066248,0.00070592676249966,0.00569734969924729,0.55405,-0.04346,0.12237,0.55404789963461,-0.0434598061400674,0.122369949372888,-2.10036539050051e-06,1.93859932551277e-07,-5.06271119055102e-08,2.10990036530663e-06,1,0,0,0,0,-0.216296219489663,6.61948357605125e-08,0.462462714646076,0.321809754914638,-0.216296219489663,6.61948357605125e-08,0.462462714646076,0.321809754914638,-12.392860501393,3.79268471463902e-06,26.4971617313831,18.4383407627481,0.9058,0.106,0.109,0.90579997604991,0.106000033571602,0.109000032346163,-2.39500896892508e-08,3.35716021648835e-08,3.23461630397093e-08,5.24111966227811e-08,1
-0.024356,-0.42893,0,0,-0.0243610558665496,-0.428928747881237,1.04678353795648e-05,0.000112366869165821,-5.05586654964488e-06,1.25211876295106e-06,1.04678353795648e-05,0.000112366869165821,-0.000289679815076021,7.17411205662373e-05,0.000599762787886785,0.00643814736030025,0.51822,-0.19023,0.1215,0.518224351121917,-0.190231763519622,0.121500106639741,4.35112191710108e-06,-1.76351962227761e-06,1.06639741107029e-07,4.69612983530256e-06,1,0,0,0,0,-0.216296219489663,6.61948357605125e-08,0.462462714646076,0.321809754914638,-0.216296219489663,6.61948357605125e-08,0.462462714646076,0.321809754914638,-12.392860501393,3.79268471463902e-06,26.4971617313831,18.4383407627481,0.9058,0.106,0.109,0.90579997604991,0.106000033571602,0.109000032346163,-2.39500896892508e-08,3.35716021648835e-08,3.23461630397093e-08,5.24111966227811e-08,1
-0.024356,-0.44511,0,0,-0.0243622176863323,-0.445106518774103,1.90016901221631e-05,0.000114594700446057,-6.21768633234446e-06,3.48122589693967e-06,1.90016901221631e-05,0.000114594700446057,-0.000356247185179514,0.000199459551426287,0.00108871664761537,0.006565792690125,0.515,-0.19801,0.12142,0.514999093331739,-0.1980096142253,0.121419979073502,-9.06668260691745e-07,3.85774700323305e-07,-2.09264980483015e-08,9.85549274605738e-07,1,0,0,0,0,-0.216296219489663,6.61948357605125e-08,0.462462714646076,0.321809754914638,-0.216296219489663,6.61948357605125e-08,0.462462714646076,0.321809754914638,-12.392860501393,3.79268471463902e-06,26.4971617313831,18.4383407627481,0.9058,0.106,0.109,0.90579997604991,0.106000033571602,0.109000032346163,-2.39500896892508e-08,3.35716021648835e-08,3.23461630397093e-08,5.24111966227811e-08,1
-0.024356,-0.42893,0,0,-0.0243610558665496,-0.428928747881237,1.04678353795648e-05,0.000112366869165821,-5.05586654964488e-06,1.25211876295106e-06,1.04678353795648e-05,0.000112366869165821,-0.000289679815076021,7.17411205662373e-05,0.000599762787886785,0.00643814736030025,0.51822,-0.19023,0.1215,0.518224351121917,-0.190231763519622,0.121500106639741,4.35112191710108e-06,-1.76351962227761e-06,1.06639741107029e-07,4.69612983530256e-06,1,0,0,0,0,-0.216296219489663,6.61948357605125e-08,0.462462714646076,0.321809754914638,-0.216296219489663,6.61948357605125e-08,0.462462714646076,0.321809754914638,-12.392860501393,3.79268471463902e-06,26.4971617313831,18.4383407627481,0.9058,0.106,0.109,0.90579997604991,0.106000033571602,0.109000032346163,-2.39500896892508e-08,3.35716021648835e-08,3.23461630397093e-08,5.24111966227811e-08,1
-0.024356,0.024193,0,0,-0.0243591257077341,0.0241925169337948,3.59769682650976e-06,8.22536563432928e-05,-3.12570773408974e-06,-4.83066205217431e-07,3.59769682650976e-06,8.22536563432928e-05,-0.000179089861154742,-2.76776547843593e-05,0.000206132844126619,0.00471278735799015,0.55513,0.040672,0.1224,0.5551330954034,0.0406722098558532,0.122400076293748,3.09540339948899e-06,2.09855853167129e-07,7.62937475695669e-08,3.10344686124875e-06,1,0,0,0,0,-0.216296219489663,6.61948357605125e-08,0.462462714646076,0.321809754914638,-0.216296219489663,6.61948357605125e-08,0.462462714646076,0.321809754914638,-12.392860501393,3.79268471463902e-06,26.4971617313831,18.4383407627481,0.9058,0.106,0.109,0.90579997604991,0.106000033571602,0.109000032346163,-2.39500896892508e-08,3.35716021648835e-08,3.23461630397093e-08,5.24111966227811e-08,1
-0.024356,0.12938,0,0,-0.0243600412925466,0.129383167598763,4.32976476762146e-06,9.56848271174068e-05,-4.04129254663599e-06,3.16759876317629e-06,4.32976476762146e-06,9.56848271174068e-05,-0.000231549006699919,0.000181490040320861,0.000248077247469152,0.00548233675726634,0.54855,0.095001,0.12224,0.54855069589201,0.0950011250775715,0.122240017874533,6.95892010016408e-07,1.25077571452858e-07,1.78745326318008e-08,7.07269105363741e-07,1,0,0,0,0,-0.216296219489663,6.61948357605125e-08,0.462462714646076,0.321809754914638,-0.216296219489663,6.61948357605125e-08,0.462462714646076,0.321809754914638,-12.392860501393,3.79268471463902e-06,26.4971617313831,18.4383407627481,0.9058,0.106,0.109,0.90579997604991,0.106000033571602,0.109000032346163,-2.39500896892508e-08,3.35716021648835e-08,3.23461630397093e-08,5.24111966227811e-08,1
-0.024482,0.12938,0,0,-0.024488268716714,0.129382586259666,3.21568025971974e-06,0.000116406250765748,-6.26871671395232e-06,2.58625966578774e-06,3.21568025971974e-06,0.000116406250765748,-0.000359171010672586,0.000148181763574552,0.000184244907145473,0.00666958687781889,0.54855,0.095001,0.12231,0.548549039003117,0.0950008270181871,0.12230998276289,-9.60996882515275e-07,-1.72981812887607e-07,-1.72371101697655e-08,9.76593484394077e-07,1,0,0,0,0,-0.216296219489663,6.61948357605125e-08,0.462462714646076,0.321809754914638,-0.216296219489663,6.61948357605125e-08,0.462462714646076,0.321809754914638,-12.392860501393,3.79268471463902e-06,26.4971617313831,18.4383407627481,0.9058,0.106,0.109,0.90579997604991,0.106000033571602,0.109000032346163,-2.39500896892508e-08,3.35716021648835e-08,3.23461630397093e-08,5.24111966227811e-08,1
-0.79317,0.12938,0,0,-0.793181055324671,0.129382947185396,9.30898875401435e-06,0.000114884157461123,-1.10553246709388e-05,2.94718539600725e-06,9.30898875401435e-06,0.000114884157461123,-0.000633423444791651,0.000168861284633807,0.000533365767139769,0.00658237735543871,0.38649,0.095001,0.49637,0.386490080757558,0.0950010120679058,0.496370087551311,8.07575576966535e-08,1.20679057719064e-08,8.75513107012615e-08,1.19719043933523e-07,1,0,0,0,0,-0.216296219489663,6.61948357605125e-08,0.462462714646076,0.321809754914638,-0.216296219489663,6.61948357605125e-08,0.462462714646076,0.321809754914638,-12.392860501393,3.79268471463902e-06,26.4971617313831,18.4383407627481,0.9058,0.106,0.109,0.90579997604991,0.106000033571602,0.109000032346163,-2.39500896892508e-08,3.35716021648835e-08,3.23461630397093e-08,5.24111966227811e-08,1
-1.1168,0.12938,0,0,-1.11682571826965,0.129383844214347,-1.30562515084978e-05,9.32027887656793e-05,-2.57182696499214e-05,3.84421434673765e-06,-1.30562515084978e-05,9.32027887656793e-05,-0.00147354830731989,0.000220257257611708,-0.00074806810769824,0.00534012643512275,0.24349,0.095001,0.59755,0.243491223267114,0.0950014719840022,0.597552469658964,1.22326711440857e-06,4.71984002214931e-07,2.46965896433249e-06,2.79613424778713e-06,1,0,0,0,0,-0.216296219489663,6.61948357605125e-08,0.462462714646076,0.321809754914638,-0.216296219489663,6.61948357605125e-08,0.462462714646076,0.321809754914638,-12.392860501393,3.79268471463902e-06,26.4971617313831,18.4383407627481,0.9058,0.106,0.109,0.90579997604991,0.106000033571602,0.109000032346163,-2.39500896892508e-08,3.35716021648835e-08,3.23461630397093e-08,5.24111966227811e-08,1
-1.1168,0.10498,0,0,-1.11683370396584,0.104981409916286,-6.35408065898646e-06,0.000127082740476793,-3.37039658386828e-05,1.40991628565235e-06,-6.35408065898646e-06,0.000127082740476793,-0.00193109499540963,8.07822526346408e-05,-0.000364062004445629,0.00728130467827657,0.24438,0.082464,0.59938,0.244381705978863,0.0824645890267518,0.599383488243457,1.70597886348101e-06,5.89026751846022e-07,3.48824345708376e-06,3.92748759551471e-06,1,0,0,0,0,-0.216296219489663,6.61948357605125e-08,0.462462714646076,0.321809754914638,-0.216296219489663,6.61948357605125e-08,0.462462714646076,0.321809754914638,-12.392860501393,3.79268471463902e-06,26.4971617313831,18.4383407627481,0.9058,0.106,0.109,0.90579997604991,0.106000033571602,0.109000032346163,-2.39500896892508e-08,3.35716021648835e-08,3.23461630397093e-08,5.24111966227811e-08,1
-1.1168,-0.00020749,0,0,-1.11684386387236,-0.000207962643062632,2.31850182289674e-05,6.56322479013187e-05,-4.38638723592177e-05,-4.72643062631633e-07,2.31850182289674e-05,6.56322479013187e-05,-0.00251321475928373,-2.708045270493e-05,0.00132840369245371,0.00376045080470192,0.24669,0.027992,0.60411,0.246688563643587,0.0279918589333684,0.604107046755653,-1.43635641305928e-06,-1.41066631577369e-07,-2.95324434740341e-06,3.28704604703848e-06,1,0,0,0,0,-0.216296219489663,6.61948357605125e-08,0.462462714646076,0.321809754914638,-0.216296219489663,6.61948357605125e-08,0.462462714646076,0.321809754914638,-12.392860501393,3.79268471463902e-06,26.4971617313831,18.4383407627481,0.9058,0.106,0.109,0.90579997604991,0.106000033571602,0.109000032346163,-2.39500896892508e-08,3.35716021648835e-08,3.23461630397093e-08,5.24111966227811e-08,1
-1.1168,-1.1249,0,0,-1.1169003752574,-1.1249289205867,7.51104530674056e-05,1.93051072958772e-05,-0.000100375257404917,-2.89205867016751e-05,7.51104530674056e-05,1.93051072958772e-05,-0.00575107861684099,-0.00165702755904816,0.00430351195807779,0.00110610117110098,0.12601,-0.45403,0.35679,0.126010220748192,-0.454030923485055,0.35679045233573,2.20748191920306e-07,-9.23485054593609e-07,4.52335729539399e-07,1.0517423745917e-06,1,0,0,0,0,-0.216296219489663,6.61948357605125e-08,0.462462714646076,0.321809754914638,-0.216296219489663,6.61948357605125e-08,0.462462714646076,0.321809754914638,-12.392860501393,3.79268471463902e-06,26.4971617313831,18.4383407627481,0.9058,0.106,0.109,0.90579997604991,0.106000033571602,0.109000032346163,-2.39500896892508e-08,3.35716021648835e-08,3.23461630397093e-08,5.24111966227811e-08,1
-1.1168,-1.489,0,0,-1.11701569557107,-1.48903484076819,6.8094400506727e-05,3.17198575845376e-05,-0.000215695571069041,-3.48407681904916e-05,6.8094400506727e-05,3.17198575845376e-05,-0.0123584458819202,-0.00199622897230882,0.00390152175750895,0.00181741396635004,0.047239,-0.5111,0.19536,0.0472390300288735,-0.511100797293691,0.195360071770544,3.00288735266552e-08,-7.97293691290335e-07,7.17705441466432e-08,8.01080504333836e-07,1,0,0,0,0,-0.216296219489663,6.61948357605125e-08,0.462462714646076,0.321809754914638,-0.216296219489663,6.61948357605125e-08,0.462462714646076,0.321809754914638,-12.392860501393,3.79268471463902e-06,26.4971617313831,18.4383407627481,0.9058,0.106,0.109,0.90579997604991,0.106000033571602,0.109000032346163,-2.39500896892508e-08,3.35716021648835e-08,3.23461630397093e-08,5.24111966227811e-08,1
-1.1168,-1.5376,0,0,-1.11702194448175,-1.53758116914565,5.10103030648639e-05,4.64663981497744e-05,-0.000221944481747283,1.88308543516147e-05,5.10103030648639e-05,4.64663981497744e-05,-0.0127164820903376,0.00107892847897308,0.00292267507729995,0.00266232850315657,0.036216,-0.51366,0.17277,0.0362158665080969,-0.51365601555128,0.172769706439717,-1.33491903121785e-07,3.98444871974046e-06,-2.93560282527139e-07,3.99747787084781e-06,1,0,0,0,0,-0.216296219489663,6.61948357605125e-08,0.462462714646076,0.321809754914638,-0.216296219489663,6.61948357605125e-08,0.462462714646076,0.321809754914638,-12.392860501393,3.79268471463902e-06,26.4971617313831,18.4383407627481,0.9058,0.106,0.109,0.90579997604991,0.106000033571602,0.109000032346163,-2.39500896892508e-08,3.35716021648835e-08,3.23461630397093e-08,5.24111966227811e-08,1
-1.1168,-0.98737,0,0,-1.11682929738966,-0.987364651761414,2.7947013216993e-06,0.000127580003373994,-2.92973896560689e-05,5.34823858566735e-06,2.7947013216993e-06,0.000127580003373994,-0.00167861677804298,0.000306431498787756,0.000160124590733003,0.00730979574359465,0.15262,-0.41612,0.41132,0.152619923192564,-0.416119767183499,0.411319852640541,-7.68074359391857e-08,2.32816501244404e-07,-1.47359458857466e-07,2.860379617848e-07,1,0,0,0,0,-0.216296219489663,6.61948357605125e-08,0.462462714646076,0.321809754914638,-0.216296219489663,6.61948357605125e-08,0.462462714646076,0.321809754914638,-12.392860501393,3.79268471463902e-06,26.4971617313831,18.4383407627481,0.9058,0.106,0.109,0.90579997604991,0.106000033571602,0.109000032346163,-2.39500896892508e-08,3.35716021648835e-08,3.23461630397093e-08,5.24111966227811e-08,1
-1.1168,-0.54234,0,0,-1.1168497184795,-0.542327337580545,4.78616053523877e-05,6.2441036492276e-05,-4.9718479501859e-05,1.26624194549674e-05,4.78616053523877e-05,6.2441036492276e-05,-0.00284865903926422,0.000725503193193975,0.00274226798741256,0.00357760785942977,0.21913,-0.24356,0.54762,0.219129673785035,-0.243559579651956,0.547619317578948,-3.26214964846416e-07,4.20348043733698e-07,-6.82421051667603e-07,8.65336450705512e-07,1,0,0,0,0,-0.216296219489663,6.61948357605125e-08,0.462462714646076,0.321809754914638,-0.216296219489663,6.61948357605125e-08,0.462462714646076,0.321809754914638,-12.392860501393,3.79268471463902e-06,26.4971617313831,18.4383407627481,0.9058,0.106,0.109,0.90579997604991,0.106000033571602,0.109000032346163,-2.39500896892508e-08,3.35716021648835e-08,3.23461630397093e-08,5.24111966227811e-08,1
-1.1168,-0.13776,0,0,-1.11683129251158,-0.137761998788511,-2.79746163600296e-06,8.79890674659052e-05,-3.12925115815155e-05,-1.99878851142588e-06,-2.79746163600296e-06,8.79890674659052e-05,-0.00179292884398509,-0.000114522145843939,-0.000160282745092732,0.00504140220908823,0.2459,-0.043526,0.60249,0.245899478092267,-0.0435258759110772,0.602488937569849,-5.21907732670135e-07,1.24088922776044e-07,-1.06243015141061e-06,1.19018635885435e-06,1,0,0,0,0,-0.216296219489663,6.61948357605125e-08,0.462462714646076,0.321809754914638,-0.216296219489663,6.61948357605125e-08,0.462462714646076,0.321809754914638,-12.392860501393,3.79268471463902e-06,26.4971617313831,18.4383407627481,0.9058,0.106,0.109,0.90579997604991,0.106000033571602,0.109000032346163,-2.39500896892508e-08,3.35716021648835e-08,3.23461630397093e-08,5.24111966227811e-08,1
-1.1168,-0.056847,0,0,-1.11682620181367,-0.0568473634785502,1.49506675382116e-06,0.000116511024738238,-2.62018136663045e-05,-3.6347855019575e-07,1.49506675382116e-06,0.000116511024738238,-0.00150125333866745,-2.08257868697505e-05,8.5661015084277e-05,0.00667558998424537,0.24689,-0.0014815,0.60451,0.246890081821968,-0.00148154069347465,0.604510204112893,8.18219676179677e-08,-4.06934746455256e-08,2.04112892698838e-07,2.23635565663177e-07,1,0,0,0,0,-0.216296219489663,6.61948357605125e-08,0.462462714646076,0.321809754914638,-0.216296219489663,6.61948357605125e-08,0.462462714646076,0.321809754914638,-12.392860501393,3.79268471463902e-06,26.4971617313831,18.4383407627481,0.9058,0.106,0.109,0.90579997604991,0.106000033571602,0.109000032346163,-2.39500896892508e-08,3.35716021648835e-08,3.23461630397093e-08,5.24111966227811e-08,1
-1.1168,-0.040791,0,0,-1.1168210274097,-0.0407912229148503,-8.08763069581433e-06,3.89611017421498e-05,-2.10274097010021e-05,-2.22914850314671e-07,-8.08763069581433e-06,3.89611017421498e-05,-0.00120478182995987,-1.27720801138211e-05,-0.000463387105130615,0.00223230669500498,0.24691,0.0068755,0.60455,0.246908821842365,0.00687547986230054,0.604547565671002,-1.17815763481244e-06,-2.01376994610897e-08,-2.43432899782459e-06,2.70451818427166e-06,1,0,0,0,0,-0.216296219489663,6.61948357605125e-08,0.462462714646076,0.321809754914638,-0.216296219489663,6.61948357605125e-08,0.462462714646076,0.321809754914638,-12.392860501393,3.79268471463902e-06,26.4971617313831,18.4383407627481,0.9058,0.106,0.109,0.90579997604991,0.106000033571602,0.109000032346163,-2.39500896892508e-08,3.35716021648835e-08,3.23461630397093e-08,5.24111966227811e-08,1
-1.1168,0.14531,0,0,-1.11682747032197,0.145318386697895,4.65110485074249e-06,0.000115786494232173,-2.74703219735883e-05,8.38669789454682e-06,4.65110485074249e-06,0.000115786494232173,-0.0015739335109521,0.000480522393408787,0.00026648867802037,0.00663407744411938,0.24284,0.10316,0.59621,0.242839006001522,0.103159567915913,0.596207925075499,-9.93998478027169e-07,-4.32084087093054e-07,-2.07492450077229e-06,2.34094880690384e-06,1,0,0,0,0,-0.216296219489663,6.61948357605125e-08,0.462462714646076,0.321809754914638,-0.216296219489663,6.61948357605125e-08,0.462462714646076,0.321809754914638,-12.392860501393,3.79268471463902e-06,26.4971617313831,18.4383407627481,0.9058,0.106,0.109,0.90579997604991,0.106000033571602,0.109000032346163,-2.39500896892508e-08,3.35716021648835e-08,3.23461630397093e-08,5.24111966227811e-08,1
-1.1168,0.32332,0,0,-1.1168340607394,0.323315134185714,1.85228688170238e-05,0.00011329555259628,-3.4060739402042e-05,-4.86581428643662e-06,1.85228688170238e-05,0.00011329555259628,-0.00195153661483195,-0.000278790622507279,0.00106128220768994,0.0064913570013693,0.2317,0.19213,0.57338,0.231698539660614,0.192128740023111,0.573377060894618,-1.46033938627776e-06,-1.25997688946167e-06,-2.93910538240461e-06,3.51546203705449e-06,1,0,0,0,0,-0.216296219489663,6.61948357605125e-08,0.462462714646076,0.321809754914638,-0.216296219489663,6.61948357605125e-08,0.462462714646076,0.321809754914638,-12.392860501393,3.79268471463902e-06,26.4971617313831,18.4383407627481,0.9058,0.106,0.109,0.90579997604991,0.106000033571602,0.109000032346163,-2.39500896892508e-08,3.35716021648835e-08,3.23461630397093e-08,5.24111966227811e-08,1
-1.1168,0.32332,0,0,-1.1168340607394,0.323315134185714,1.85228688170238e-05,0.00011329555259628,-3.4060739402042e-05,-4.86581428643662e-06,1.85228688170238e-05,0.00011329555259628,-0.00195153661483195,-0.000278790622507279,0.00106128220768994,0.0064913570013693,0.2317,0.19213,0.57338,0.231698539660614,0.192128740023111,0.573377060894618,-1.46033938627776e-06,-1.25997688946167e-06,-2.93910538240461e-06,3.51546203705449e-06,1,0.0039647,0,0,0,-0.212307665628684,8.78814681121984e-09,0.462395236205675,-0.30989238209717,-0.216272365628684,8.78814681121984e-09,0.462395236205675,-0.30989238209717,-12.3914937758338,5.03523722024249e-07,26.49329550154,-17.7555255974233,0.9058,0.106,0.11118,0.905800018760633,0.106000004457097,0.111179995673779,1.87606326029766e-08,4.45709706642372e-09,-4.32622103418989e-09,1.97621668437461e-08,1
-1.1168,0.32332,0,0,-1.1168340607394,0.323315134185714,1.85228688170238e-05,0.00011329555259628,-3.4060739402042e-05,-4.86581428643662e-06,1.85228688170238e-05,0.00011329555259628,-0.00195153661483195,-0.000278790622507279,0.00106128220768994,0.0064913570013693,0.2317,0.19213,0.57338,0.231698539660614,0.192128740023111,0.573377060894618,-1.46033938627776e-06,-1.25997688946167e-06,-2.93910538240461e-06,3.51546203705449e-06,1,-0.085042,0,0,0,-0.301331423367779,1.17876222870057e-08,0.462449018634646,-0.473407654408912,-0.216289423367779,1.17876222870057e-08,0.462449018634646,-0.473407654408912,-12.392471112292,6.75381007539774e-07,26.496377007732,-27.1242605868185,0.90381,0.106,0.062207,0.903809984817171,0.10600000597827,0.0622069949735466,-1.51828289940426e-08,5.97827042037036e-09,-5.02645342709274e-09,1.70740518781028e-08,1
-1.1168,0.32332,0,0,-1.1168340607394,0.323315134185714,1.85228688170238e-05,0.00011329555259628,-3.4060739402042e-05,-4.86581428643662e-06,1.85228688170238e-05,0.00011329555259628,-0.00195153661483195,-0.000278790622507279,0.00106128220768994,0.0064913570013693,0.2317,0.19213,0.57338,0.231698539660614,0.192128740023111,0.573377060894618,-1.46033938627776e-06,-1.25997688946167e-06,-2.93910538240461e-06,3.51546203705449e-06,1,-1.8975,0,0,0,-2.11379051117209,-5.67661234223794e-08,0.462399609531304,-0.258312789093277,-0.21629051117209,-5.67661234223794e-08,0.462399609531304,-0.258312789093277,-12.392533438888,-3.25245929142107e-06,26.4935460746409,-14.8002326092977,0.17809,0.106,-0.41276,0.178089974146687,0.105999971209873,-0.412759987996606,-2.58533131569649e-08,-2.87901272266744e-08,1.20033944450704e-08,4.0513537306981e-08,1
-1.1168,0.32332,0,0,-1.1168340607394,0.323315134185714,1.85228688170238e-05,0.00011329555259628,-3.4060739402042e-05,-4.86581428643662e-06,1.85228688170238e-05,0.00011329555259628,-0.00195153661483195,-0.000278790622507279,0.00106128220768994,0.0064913570013693,0.2317,0.19213,0.57338,0.231698539660614,0.192128740023111,0.573377060894618,-1.46033938627776e-06,-1.25997688946167e-06,-2.93910538240461e-06,3.51546203705449e-06,1,-1.9299,0,0,0,-2.14619555433014,-3.93194443767665e-08,0.462482784288266,-0.495051455178414,-0.216295554330141,-3.93194443767665e-08,0.462482784288266,-0.495051455178414,-12.3928223905597,-2.25283821558812e-06,26.4983116371769,-28.3643590235329,0.1613,0.106,-0.40676,0.16130000358758,0.105999980058708,-0.40676001629033,3.58758012186655e-09,-1.99412922702313e-08,-1.62903298628336e-08,2.59980906140726e-08,1
-1.1168,0.32332,0,0,-1.1168340607394,0.323315134185714,1.85228688170238e-05,0.00011329555259628,-3.4060739402042e-05,-4.86581428643662e-06,1.85228688170238e-05,0.00011329555259628,-0.00195153661483195,-0.000278790622507279,0.00106128220768994,0.0064913570013693,0.2317,0.19213,0.57338,0.231698539660614,0.192128740023111,0.573377060894618,-1.46033938627776e-06,-1.25997688946167e-06,-2.93910538240461e-06,3.51546203705449e-06,1,-1.76,0,0,0,-1.97628244753556,-1.34108961103458e-07,0.462477930347553,-0.205120774424521,-0.216282447535556,-1.34108961103458e-07,0.462477930347553,-0.205120774424521,-12.392071426547,-7.68387746611226e-06,26.49803352686,-11.75255466498,0.2513,0.106,-0.43207,0.251299984729288,0.105999931985076,-0.432069988911687,-1.5270712083737e-08,-6.80149236792493e-08,1.10883128789929e-08,7.0584525025964e-08,1
-1.1168,0.32332,0,0,-1.1168340607394,0.323315134185714,1.85228688170238e-05,0.00011329555259628,-3.4060739402042e-05,-4.86581428643662e-06,1.85228688170238e-05,0.00011329555259628,-0.00195153661483195,-0.000278790622507279,0.00106128220768994,0.0064913570013693,0.2317,0.19213,0.57338,0.231698539660614,0.192128740023111,0.573377060894618,-1.46033938627776e-06,-1.25997688946167e-06,-2.93910538240461e-06,3.51546203705449e-06,1,-0.38443,0,0,0,-0.600736855530858,-8.2912534145731e-09,0.462492624601627,-0.613264680673459,-0.216306855530858,-8.2912534145731e-09,0.462492624601627,-0.613264680673459,-12.3934699016642,-4.75053827528471e-07,26.4988754456016,-35.1374779270274,0.86559,0.106,-0.097602,0.865589987480995,0.105999995795009,-0.0976020093737324,-1.25190047217671e-08,-4.20499149389464e-09,-9.37373238751871e-09,1.61948847343898e-08,1
-1.1168,0.32332,0,0,-1.1168340607394,0.323315134185714,1.85228688170238e-05,0.00011329555259628,-3.4060739402042e-05,-4.86581428643662e-06,1.85228688170238e-05,0.00011329555259628,-0.00195153661483195,-0.000278790622507279,0.00106128220768994,0.0064913570013693,0.2317,0.19213,0.57338,0.231698539660614,0.192128740023111,0.573377060894618,-1.46033938627776e-06,-1.25997688946167e-06,-2.93910538240461e-06,3.51546203705449e-06,1,-0.27114,0,0,0,-0.487461985466004,-2.98851454435388e-09,0.462504916157313,0.441445755567173,-0.216321985466004,-2.98851454435388e-09,0.462504916157313,0.441445755567173,-12.3943367830924,-1.7122927040494e-07,26.499579699866,25.2929786779628,0.88567,0.106,-0.03855,0.885669989186386,0.10599999848435,-0.0385499836576586,-1.0813614448324e-08,-1.51565046624391e-09,1.63423414037411e-08,1.96546070001223e-08,1
-1.1168,0.32332,0,0,-1.1168340607394,0.323315134185714,1.85228688170238e-05,0.00011329555259628,-3.4060739402042e-05,-4.86581428643662e-06,1.85228688170238e-05,0.00011329555259628,-0.00195153661483195,-0.000278790622507279,0.00106128220768994,0.0064913570013693,0.2317,0.19213,0.57338,0.231698539660614,0.192128740023111,0.573377060894618,-1.46033938627776e-06,-1.25997688946167e-06,-2.93910538240461e-06,3.51546203705449e-06,1,0.43281,0,0,0,0.216501445255961,-1.86405668055925e-09,0.462491026510606,0.386968264864105,-0.216308554744039,-1.86405668055925e-09,0.462491026510606,0.386968264864105,-12.3935672594079,-1.06802580569211e-07,26.4987838817308,22.1716483822138,0.855,0.106,0.34006,0.855000028950698,0.105999999054625,0.340060010613199,2.89506981721033e-08,-9.45375194794096e-10,1.0613198597742e-08,3.0849256772024e-08,1
-1.1168,0.32332,0,0,-1.1168340607394,0.323315134185714,1.85228688170238e-05,0.00011329555259628,-3.4060739402042e-05,-4.86581428643662e-06,1.85228688170238e-05,0.00011329555259628,-0.00195153661483195,-0.000278790622507279,0.00106128220768994,0.0064913570013693,0.2317,0.19213,0.57338,0.231698539660614,0.192128740023111,0.573377060894618,-1.46033938627776e-06,-1.25997688946167e-06,-2.93910538240461e-06,3.51546203705449e-06,1,1.2501,0,0,0,1.0337192149415,-7.66989155780237e-09,0.462549911604535,-0.417328975447975,-0.216380785058499,-7.66989155780237e-09,0.462549911604535,-0.417328975447975,-12.3977057515794,-4.39452415585096e-07,26.5021577490892,-23.9111889616877,0.52858,0.106,0.6318,0.528579938283831,0.10599999611019,0.631800015421547,-6.17161691751633e-08,-3.88980964105556e-09,1.54215464842622e-08,6.37325682258866e-08,1
-1.1168,0.32332,0,0,-1.1168340607394,0.323315134185714,1.85228688170238e-05,0.00011329555259628,-3.4060739402042e-05,-4.86581428643662e-06,1.85228688170238e-05,0.00011329555259628,-0.00195153661483195,-0.000278790622507279,0.00106128220768994,0.0064913570013693,0.2317,0.19213,0.57338,0.231698539660614,0.192128740023111,0.573377060894618,-1.46033938627776e-06,-1.25997688946167e-06,-2.93910538240461e-06,3.51546203705449e-06,1,1.2501,-0.0081725,0,0,1.03378612077237,0.00837860068987799,0.462525560961829,-0.668258612781123,-0.216313879227628,0.016551100689878,0.462525560961829,-0.668258612781123,-12.3938723298457,0.948308215826074,26.5007625600337,-38.2883981356255,0.52864,0.11025,0.63196,0.528640013060387,0.110250008449702,0.631959999725924,1.30603872161572e-08,8.44970188262906e-09,-2.74076428219416e-10,1.55578370614226e-08,1
-1.1168,0.32332,0,0,-1.1168340607394,0.323315134185714,1.85228688170238e-05,0.00011329555259628,-3.4060739402042e-05,-4.86581428643662e-06,1.85228688170238e-05,0.00011329555259628,-0.00195153661483195,-0.000278790622507279,0.00106128220768994,0.0064913570013693,0.2317,0.19213,0.57338,0.231698539660614,0.192128740023111,0.573377060894618,-1.46033938627776e-06,-1.25997688946167e-06,-2.93910538240461e-06,3.51546203705449e-06,1,1.2501,-0.41275,0,0,1.01940134414318,0.423558515028129,0.461692870820181,-0.15554232148202,-0.230698655856825,0.836308515028129,0.461692870820181,-0.15554232148202,-13.2180593199371,47.916948281965,26.4530529292751,-8.91191855658681,0.5177,0.3165,0.59904,0.517699963274092,0.316499954577033,0.599039993575021,-3.67259083144944e-08,-4.54229672763873e-08,-6.42497921532481e-09,5.87649441047446e-08,1
-1.1168,0.32332,0,0,-1.1168340607394,0.323315134185714,1.85228688170238e-05,0.00011329555259628,-3.4060739402042e-05,-4.86581428643662e-06,1.85228688170238e-05,0.00011329555259628,-0.00195153661483195,-0.000278790622507279,0.00106128220768994,0.0064913570013693,0.2317,0.19213,0.57338,0.231698539660614,0.192128740023111,0.573377060894618,-1.46033938627776e-06,-1.25997688946167e-06,-2.93910538240461e-06,3.51546203705449e-06,1,1.2501,-0.67167,0,0,1.2482255929207,0.67044713513698,0.00318946393840768,0.00185092330386501,-0.00187440707929798,1.34211713513698,0.00318946393840768,0.00185092330386501,-0.107395614733218,76.8976474555381,0.182742822579934,0.106050093513876,0.49745,0.43455,0.53808,0.501271923521761,0.443349334620503,0.549584422708527,0.00382192352176097,0.00879933462050297,0.0115044227085269,0.0149795571038079,0
-1.1168,0.32332,0,0,-1.1168340607394,0.323315134185714,1.85228688170238e-05,0.00011329555259628,-3.4060739402042e-05,-4.86581428643662e-06,1.85228688170238e-05,0.00011329555259628,-0.00195153661483195,-0.000278790622507279,0.00106128220768994,0.0064913570013693,0.2317,0.19213,0.57338,0.231698539660614,0.192128740023111,0.573377060894618,-1.46033938627776e-06,-1.25997688946167e-06,-2.93910538240461e-06,3.51546203705449e-06,1,1.2501,-0.67976,0,0,1.24822821089336,0.678541920459464,0.00318987607828945,0.00185050563172838,-0.00187178910663888,1.35830192045946,0.00318987607828945,0.00185050563172838,-0.10724561594897,77.8249673468417,0.182766436455728,0.106026162663226,0.49666,0.43795,0.53572,0.500459017723178,0.446846958240406,0.547156513691104,0.0037990177231777,0.00889695824040648,0.0114365136911043,0.0149793940798475,0
-1.1168,0.32332,0,0,-1.1168340607394,0.323315134185714,1.85228688170238e-05,0.00011329555259628,-3.4060739402042e-05,-4.86581428643662e-06,1.85228688170238e-05,0.00011329555259628,-0.00195153661483195,-0.000278790622507279,0.00106128220768994,0.0064913570013693,0.2317,0.19213,0.57338,0.231698539660614,0.192128740023111,0.573377060894618,-1.46033938627776e-06,-1.25997688946167e-06,-2.93910538240461e-06,3.51546203705449e-06,1,1.2501,-0.81732,0,0,1.24674912197928,0.816093778077338,0.00515610534237788,0.0035554778301443,-0.00335087802072431,1.63341377807734,0.00515610534237788,0.0035554778301443,-0.191991168250654,93.58771568235,0.295423074843109,0.2037138738196,0.48205,0.49244,0.49173,0.485431200940337,0.502912104765158,0.501907526278026,0.00338120094033728,0.0104721047651577,0.0101775262780263,0.0149893141654744,0
-1.1168,0.32332,0,0,-1.1168340607394,0.323315134185714,1.85228688170238e-05,0.00011329555259628,-3.4060739402042e-05,-4.86581428643662e-06,1.85228688170238e-05,0.00011329555259628,-0.00195153661483195,-0.000278790622507279,0.00106128220768994,0.0064913570013693,0.2317,0.19213,0.57338,0.231698539660614,0.192128740023111,0.573377060894618,-1.46033938627776e-06,-1.25997688946167e-06,-2.93910538240461e-06,3.51546203705449e-06,1,1.2501,-0.84159,0,0,0.948608540136288,0.86770953240027,0.457646480698096,0.708790525925574,-0.301491459863712,1.70929953240027,0.457646480698096,0.708790525925574,-17.2741882094286,97.9356491302206,26.2212118530162,40.6107056943933,0.47923,0.50138,0.48325,0.479229989592587,0.501380002167425,0.483250013988929,-1.04074126539011e-08,2.16742535030789e-09,1.39889287931183e-08,1.75699203064975e-08,1
